;FLAVOR:Marlin
;TIME:2765
;Filament used: 1.92792m
;Layer height: 0.2
;MINX:116.3
;MINY:53.88
;MINZ:0.2
;MAXX:154.7
;MAXY:93.846
;MAXZ:7.1
;TARGET_MACHINE.NAME:Anycubic Vyper
;Generated with Cura_SteamEngine 5.7.0
M140 S60
M105
M190 S60
M104 S200
M105
M109 S200
M82 ;absolute extrusion mode
G21 ;metric values
G90 ;absolute positioning
M82 ;set extruder to absolute mode
M107 ;start with the fan off
G28 X0 Y0 ;move X/Y to min endstops
M300 S1318 P266
G28 Z0 ;move Z to min endstops
G0 Z0.2
G92 E0 ;zero the extruded length
G1 X40 E25 F400 ; Extrude 25mm of filament in a 4cm line. Reduce speed (F) if you have a nozzle smaller than 0.4mm!
G92 E0 ;zero the extruded length again
G1 E-1 F500 ; Retract a little
G1 X80 F4000 ; Quickly wipe away from the filament line
M117 ; Printing…
G5
G92 E0
G92 E0
G1 F1500 E-6.5
;LAYER_COUNT:35
;LAYER:0
M107
G0 F3600 X121.498 Y68.273 Z0.3
;TYPE:SKIRT
G1 F1500 E0
G1 F1200 X123.44 Y68.273 E0.09689
G1 X123.559 Y68.234 E0.10313
G1 X123.64 Y68.073 E0.11213
G1 X123.64 Y67.174 E0.15698
G1 X126.989 Y67.174 E0.32406
G1 X127.149 Y67.094 E0.33298
G1 X128.747 Y64.973 E0.46547
G1 X131.126 Y64.973 E0.58416
G1 X131.866 Y65.714 E0.63641
G1 X132.008 Y65.773 E0.64408
G1 X134.7 Y65.773 E0.77838
G1 X134.7 Y67.773 E0.87816
G1 X128.498 Y67.773 E1.18758
G1 X128.379 Y67.812 E1.19383
G1 X128.298 Y67.973 E1.20282
G1 X128.298 Y72.282 E1.4178
G1 X121.498 Y72.282 E1.75705
G1 X121.498 Y68.273 E1.95706
G0 F3600 X121.898 Y68.673
G1 F1200 X123.44 Y68.673 E2.03399
G1 X123.655 Y68.633 E2.0449
G1 X123.841 Y68.52 E2.05576
G1 X123.974 Y68.347 E2.06665
G1 X124.04 Y68.073 E2.08071
G1 X124.04 Y67.574 E2.1056
G1 X126.989 Y67.574 E2.25273
G1 X127.204 Y67.534 E2.26364
G1 X127.39 Y67.421 E2.2745
G1 X127.468 Y67.335 E2.28029
G1 X128.946 Y65.373 E2.40284
G1 X130.96 Y65.373 E2.50332
G1 X131.583 Y65.997 E2.54731
G1 X131.763 Y66.121 E2.55822
G1 X132.008 Y66.173 E2.57071
G1 X134.3 Y66.173 E2.68506
G1 X134.3 Y67.373 E2.74493
G1 X128.498 Y67.373 E3.03439
G1 X128.283 Y67.413 E3.0453
G1 X128.097 Y67.526 E3.05616
G1 X127.964 Y67.699 E3.06705
G1 X127.898 Y67.973 E3.08111
G1 X127.898 Y71.882 E3.27613
G1 X121.898 Y71.882 E3.57547
G1 X121.898 Y68.673 E3.73557
G0 F3600 X122.298 Y69.073
G1 F1200 X123.44 Y69.073 E3.79254
G1 X123.719 Y69.033 E3.8066
G1 X123.976 Y68.917 E3.82067
G1 X124.191 Y68.734 E3.83476
G1 X124.345 Y68.498 E3.84882
G1 X124.428 Y68.228 E3.86291
G1 X124.44 Y68.073 E3.87067
G1 X124.44 Y67.974 E3.8756
G1 X126.989 Y67.974 E4.00277
G1 X127.268 Y67.934 E4.01684
G1 X127.509 Y67.825 E4.03003
G1 X127.498 Y67.973 E4.03744
G1 X127.498 Y71.482 E4.2125
G1 X122.298 Y71.482 E4.47193
G1 X122.298 Y69.073 E4.59212
G1 F1500 E-1.90788
G0 F3600 X128.209 Y67.018
G1 F1500 E4.59212
G1 F1200 X129.146 Y65.773 E4.66985
G1 X130.794 Y65.773 E4.75207
G1 X131.3 Y66.28 E4.78781
G1 X131.526 Y66.449 E4.80189
G1 X131.79 Y66.549 E4.81597
G1 X132.008 Y66.573 E4.82691
G1 X133.9 Y66.573 E4.92131
G1 X133.9 Y66.973 E4.94126
G1 X128.498 Y66.973 E5.21077
G1 X128.219 Y67.013 E5.22483
G1 X128.209 Y67.018 E5.22539
G1 F1500 E-1.27461
G0 F3600 X135.435 Y67.892
G0 X135.447 Y72.136
G0 X141.251 Y72.136
G0 X141.898 Y68.673
G1 F1500 E5.22539
G1 F1200 X143.44 Y68.673 E5.30232
G1 X143.655 Y68.633 E5.31323
G1 X143.841 Y68.52 E5.32409
G1 X143.974 Y68.347 E5.33498
G1 X144.04 Y68.073 E5.34904
G1 X144.04 Y67.574 E5.37393
G1 X146.989 Y67.574 E5.52106
G1 X147.204 Y67.534 E5.53197
G1 X147.39 Y67.421 E5.54283
G1 X147.468 Y67.335 E5.54862
G1 X148.946 Y65.373 E5.67117
G1 X150.96 Y65.373 E5.77165
G1 X151.583 Y65.997 E5.81564
G1 X151.763 Y66.121 E5.82654
G1 X152.008 Y66.173 E5.83904
G1 X154.3 Y66.173 E5.95339
G1 X154.3 Y67.373 E6.01326
G1 X148.498 Y67.373 E6.30272
G1 X148.283 Y67.413 E6.31363
G1 X148.097 Y67.526 E6.32449
G1 X147.964 Y67.699 E6.33537
G1 X147.898 Y67.973 E6.34944
G1 X147.898 Y71.882 E6.54446
G1 X141.898 Y71.882 E6.8438
G1 X141.898 Y68.673 E7.00389
G0 F3600 X141.498 Y68.273
G1 F1200 X143.44 Y68.273 E7.10078
G1 X143.559 Y68.234 E7.10703
G1 X143.64 Y68.073 E7.11602
G1 X143.64 Y67.174 E7.16087
G1 X146.989 Y67.174 E7.32795
G1 X147.149 Y67.094 E7.33688
G1 X148.747 Y64.973 E7.46937
G1 X151.126 Y64.973 E7.58806
G1 X151.866 Y65.714 E7.6403
G1 X152.008 Y65.773 E7.64797
G1 X154.7 Y65.773 E7.78228
G1 X154.7 Y67.773 E7.88206
G1 X148.498 Y67.773 E8.19148
G1 X148.379 Y67.812 E8.19773
G1 X148.298 Y67.973 E8.20672
G1 X148.298 Y72.282 E8.42169
G1 X141.498 Y72.282 E8.76095
G1 X141.498 Y68.273 E8.96096
G1 F1500 E2.46096
G0 F3600 X142.298 Y69.073
G1 F1500 E8.96096
G1 F1200 X143.44 Y69.073 E9.01793
G1 X143.719 Y69.033 E9.03199
G1 X143.976 Y68.917 E9.04606
G1 X144.191 Y68.734 E9.06015
G1 X144.345 Y68.498 E9.07421
G1 X144.428 Y68.228 E9.0883
G1 X144.44 Y68.073 E9.09605
G1 X144.44 Y67.974 E9.10099
G1 X146.989 Y67.974 E9.22816
G1 X147.268 Y67.934 E9.24223
G1 X147.509 Y67.825 E9.25542
G1 X147.498 Y67.973 E9.26283
G1 X147.498 Y71.482 E9.43789
G1 X142.298 Y71.482 E9.69732
G1 X142.298 Y69.073 E9.81751
G1 F1500 E3.31751
G0 F3600 X148.209 Y67.018
G1 F1500 E9.81751
G1 F1200 X149.146 Y65.773 E9.89524
G1 X150.794 Y65.773 E9.97746
G1 X151.3 Y66.28 E10.0132
G1 X151.526 Y66.449 E10.02728
G1 X151.79 Y66.549 E10.04136
G1 X152.008 Y66.573 E10.0523
G1 X153.9 Y66.573 E10.1467
G1 X153.9 Y66.973 E10.16665
G1 X148.498 Y66.973 E10.43616
G1 X148.219 Y67.013 E10.45022
G1 X148.209 Y67.018 E10.45078
G1 F1500 E3.95078
G0 F3600 X148.417 Y74.58
G0 X154.552 Y74.593
G0 X154.551 Y87.09
G0 X152.024 Y87.098
G0 X148.747 Y86.537
G1 F1500 E10.45078
G1 F1200 X151.126 Y86.537 E10.56947
G1 X151.866 Y87.278 E10.62171
G1 X152.008 Y87.337 E10.62939
G1 X154.7 Y87.337 E10.76369
G1 X154.7 Y89.337 E10.86347
G1 X148.498 Y89.337 E11.17289
G1 X148.379 Y89.376 E11.17914
G1 X148.298 Y89.537 E11.18813
G1 X148.298 Y93.846 E11.40311
G1 X141.498 Y93.846 E11.74236
G1 X141.498 Y89.837 E11.94237
G1 X143.44 Y89.837 E12.03926
G1 X143.559 Y89.798 E12.0455
G1 X143.64 Y89.637 E12.0545
G1 X143.64 Y88.738 E12.09935
G1 X146.989 Y88.738 E12.26643
G1 X147.149 Y88.658 E12.27535
G1 X148.747 Y86.537 E12.40784
G0 F3600 X148.946 Y86.937
G1 F1200 X150.96 Y86.937 E12.50832
G1 X151.583 Y87.561 E12.55231
G1 X151.763 Y87.685 E12.56322
G1 X152.008 Y87.737 E12.57571
G1 X154.3 Y87.737 E12.69006
G1 X154.3 Y88.937 E12.74993
G1 X148.498 Y88.937 E13.03939
G1 X148.283 Y88.977 E13.0503
G1 X148.097 Y89.09 E13.06116
G1 X147.964 Y89.263 E13.07205
G1 X147.898 Y89.537 E13.08611
G1 X147.898 Y93.446 E13.28113
G1 X141.898 Y93.446 E13.58047
G1 X141.898 Y90.237 E13.74057
G1 X143.44 Y90.237 E13.8175
G1 X143.655 Y90.197 E13.82841
G1 X143.841 Y90.084 E13.83927
G1 X143.974 Y89.911 E13.85015
G1 X144.04 Y89.637 E13.86421
G1 X144.04 Y89.138 E13.88911
G1 X146.989 Y89.138 E14.03624
G1 X147.204 Y89.098 E14.04715
G1 X147.39 Y88.985 E14.058
G1 X147.468 Y88.899 E14.0638
G1 X148.946 Y86.937 E14.18635
G0 F3600 X149.146 Y87.337
G1 F1200 X150.794 Y87.337 E14.26857
G1 X151.3 Y87.844 E14.3043
G1 X151.526 Y88.013 E14.31838
G1 X151.79 Y88.113 E14.33247
G1 X152.008 Y88.137 E14.34341
G1 X153.9 Y88.137 E14.4378
G1 X153.9 Y88.537 E14.45776
G1 X148.498 Y88.537 E14.72726
G1 X148.219 Y88.577 E14.74132
G1 X148.209 Y88.582 E14.74188
G1 X149.146 Y87.337 E14.81962
G1 F1500 E8.31962
G0 F3600 X147.509 Y89.389
G1 F1500 E14.81962
G1 F1200 X147.498 Y89.537 E14.82703
G1 X147.498 Y93.046 E15.00209
G1 X142.298 Y93.046 E15.26152
G1 X142.298 Y90.637 E15.3817
G1 X143.44 Y90.637 E15.43868
G1 X143.719 Y90.597 E15.45274
G1 X143.976 Y90.481 E15.46681
G1 X144.191 Y90.298 E15.48089
G1 X144.345 Y90.062 E15.49495
G1 X144.428 Y89.792 E15.50905
G1 X144.44 Y89.637 E15.5168
G1 X144.44 Y89.538 E15.52174
G1 X146.989 Y89.538 E15.64891
G1 X147.268 Y89.498 E15.66297
G1 X147.509 Y89.389 E15.67617
G1 F1500 E9.17617
G0 F3600 X141.251 Y93.7
G0 X135.447 Y93.7
G0 X134.7 Y89.337
G1 F1500 E15.67617
G1 F1200 X128.498 Y89.337 E15.98559
G1 X128.379 Y89.376 E15.99184
G1 X128.298 Y89.537 E16.00083
G1 X128.298 Y93.846 E16.2158
G1 X121.498 Y93.846 E16.55506
G1 X121.498 Y89.837 E16.75507
G1 X123.44 Y89.837 E16.85195
G1 X123.559 Y89.798 E16.8582
G1 X123.64 Y89.637 E16.86719
G1 X123.64 Y88.738 E16.91204
G1 X126.989 Y88.738 E17.07913
G1 X127.149 Y88.658 E17.08805
G1 X128.747 Y86.537 E17.22054
G1 X131.126 Y86.537 E17.33923
G1 X131.866 Y87.278 E17.39148
G1 X132.008 Y87.337 E17.39915
G1 X134.7 Y87.337 E17.53345
G1 X134.7 Y89.337 E17.63323
G0 F3600 X134.3 Y88.937
G1 F1200 X128.498 Y88.937 E17.92269
G1 X128.283 Y88.977 E17.93361
G1 X128.097 Y89.09 E17.94446
G1 X127.964 Y89.263 E17.95535
G1 X127.898 Y89.537 E17.96941
G1 X127.898 Y93.446 E18.16443
G1 X121.898 Y93.446 E18.46377
G1 X121.898 Y90.237 E18.62387
G1 X123.44 Y90.237 E18.7008
G1 X123.655 Y90.197 E18.71171
G1 X123.841 Y90.084 E18.72257
G1 X123.974 Y89.911 E18.73346
G1 X124.04 Y89.637 E18.74752
G1 X124.04 Y89.138 E18.77241
G1 X126.989 Y89.138 E18.91954
G1 X127.204 Y89.098 E18.93045
G1 X127.39 Y88.985 E18.94131
G1 X127.468 Y88.899 E18.9471
G1 X128.946 Y86.937 E19.06965
G1 X130.96 Y86.937 E19.17013
G1 X131.583 Y87.561 E19.21412
G1 X131.763 Y87.685 E19.22503
G1 X132.008 Y87.737 E19.23752
G1 X134.3 Y87.737 E19.35187
G1 X134.3 Y88.937 E19.41174
G0 F3600 X133.9 Y88.537
G1 F1200 X128.498 Y88.537 E19.68124
G1 X128.219 Y88.577 E19.69531
G1 X128.209 Y88.582 E19.69586
G1 X129.146 Y87.337 E19.7736
G1 X130.794 Y87.337 E19.85582
G1 X131.3 Y87.844 E19.89156
G1 X131.526 Y88.013 E19.90564
G1 X131.79 Y88.113 E19.91972
G1 X132.008 Y88.137 E19.93066
G1 X133.9 Y88.137 E20.02506
G1 X133.9 Y88.537 E20.04501
G1 F1500 E13.54501
G0 F3600 X127.509 Y89.389
G1 F1500 E20.04501
G1 F1200 X127.498 Y89.537 E20.05242
G1 X127.498 Y93.046 E20.22748
G1 X122.298 Y93.046 E20.48691
G1 X122.298 Y90.637 E20.60709
G1 X123.44 Y90.637 E20.66407
G1 X123.719 Y90.597 E20.67813
G1 X123.976 Y90.481 E20.6922
G1 X124.191 Y90.298 E20.70628
G1 X124.345 Y90.062 E20.72034
G1 X124.428 Y89.792 E20.73444
G1 X124.44 Y89.637 E20.74219
G1 X124.44 Y89.538 E20.74713
G1 X126.989 Y89.538 E20.8743
G1 X127.268 Y89.498 E20.88836
G1 X127.509 Y89.389 E20.90156
G1 F1500 E14.40156
G0 F3600 X127.509 Y89.389 Z0.2
G0 X128.888 Y88.011
;TYPE:SUPPORT
G1 F1500 E20.90156
G1 F1200 X131.186 Y88.011 E21.01621
G0 F3600 X130.683 Y88.337
G1 F1200 X130.683 Y87.537 E21.05612
G1 F1500 E14.55612
G0 F3600 X135.437 Y88.808
G0 X135.447 Y93.7
G0 X141.251 Y93.7
G0 X148.888 Y88.011
G1 F1500 E21.05612
G1 F1200 X151.186 Y88.011 E21.17077
G1 F1500 E14.67077
G0 F3600 X149.352 Y88.337
G1 F1500 E21.17077
G1 F1200 X149.352 Y87.537 E21.21068
G1 F1500 E14.71068
G0 F3600 X154.551 Y87.09
G0 X154.552 Y74.593
G0 X148.545 Y72.126
G0 X148.545 Y68.02
G0 X149.352 Y66.773
G1 F1500 E21.21068
G1 F1200 X149.352 Y65.973 E21.25059
G0 F3600 X148.716 Y66.675
G1 F1200 X151.414 Y66.675 E21.38519
G1 F1500 E14.88519
G0 F3600 X143.393 Y68.026
G0 X141.251 Y72.136
G0 X135.447 Y72.136
G0 X135.437 Y67.712
G0 X131.414 Y66.675
G1 F1500 E21.38519
G1 F1200 X128.716 Y66.675 E21.5198
G1 F1500 E15.0198
G0 F3600 X130.683 Y66.773
G1 F1500 E21.5198
G1 F1200 X130.683 Y65.973 E21.55971
G1 F1500 E15.05971
G0 F3600 X130.683 Y65.973 Z0.3
G0 X128.545 Y68.02
G0 X128.545 Y72.126
G0 X134.552 Y74.593
G0 X134.551 Y87.09
G0 X127.096 Y89.936
G1 F1500 E21.55971
G1 F1200 X127.096 Y92.644 E21.69481
G1 X122.696 Y92.644 E21.91433
G1 X122.696 Y91.036 E21.99455
G1 X124.675 Y91.034 E22.09329
G1 X124.755 Y91.001 E22.0976
G1 X124.837 Y90.872 E22.10523
G1 X124.84 Y89.936 E22.15193
G1 X127.096 Y89.936 E22.26448
G0 F3600 X126.936 Y90.678
G1 F1200 X124.996 Y90.678 E22.36127
G0 F3600 X125.349 Y90.096
G1 F1200 X125.349 Y92.484 E22.4804
G1 F1500 E15.9804
G0 F3600 X128.545 Y93.69
G0 X141.251 Y93.7
G0 X142.696 Y92.644
G1 F1500 E22.4804
G1 F1200 X142.696 Y91.036 E22.56063
G1 X144.675 Y91.034 E22.65936
G1 X144.755 Y91.001 E22.66368
G1 X144.837 Y90.872 E22.6713
G1 X144.84 Y89.936 E22.718
G1 X147.096 Y89.936 E22.83055
G1 X147.096 Y92.644 E22.96566
G1 X142.696 Y92.644 E23.18517
G1 F1500 E16.68517
G0 F3600 X144.018 Y92.484
G1 F1500 E23.18517
G1 F1200 X144.018 Y91.192 E23.24963
G1 F1500 E16.74963
G0 F3600 X144.996 Y90.678
G1 F1500 E23.24963
G1 F1200 X146.936 Y90.678 E23.34642
G0 F3600 X146.685 Y90.096
G1 F1200 X146.685 Y92.484 E23.46556
G1 F1500 E16.96556
G0 F3600 X148.626 Y86.297
G0 X152.024 Y87.098
G0 X154.551 Y87.09
G0 X154.552 Y74.593
G0 X150.286 Y74.586
G0 X147.096 Y71.08
G1 F1500 E23.46556
G1 F1200 X142.696 Y71.08 E23.68507
G1 X142.696 Y69.472 E23.7653
G1 X144.675 Y69.47 E23.86403
G1 X144.755 Y69.437 E23.86835
G1 X144.837 Y69.308 E23.87597
G1 X144.84 Y68.372 E23.92267
G1 X147.096 Y68.372 E24.03522
G1 X147.096 Y71.08 E24.17033
G0 F3600 X146.685 Y70.92
G1 F1200 X146.685 Y68.532 E24.28946
G0 F3600 X146.936 Y69.342
G1 F1200 X144.993 Y69.342 E24.3864
G1 F1500 E17.8864
G0 F3600 X144.018 Y69.628
G1 F1500 E24.3864
G1 F1200 X144.018 Y70.92 E24.45086
G1 F1500 E17.95086
G0 F3600 X141.251 Y72.136
G0 X128.545 Y72.126
G0 X127.096 Y71.08
G1 F1500 E24.45086
G1 F1200 X122.696 Y71.08 E24.67037
G1 X122.696 Y69.472 E24.7506
G1 X124.675 Y69.47 E24.84933
G1 X124.755 Y69.437 E24.85365
G1 X124.837 Y69.308 E24.86127
G1 X124.84 Y68.372 E24.90797
G1 X127.096 Y68.372 E25.02052
G1 X127.096 Y71.08 E25.15563
G1 F1500 E18.65563
G0 F3600 X126.936 Y69.342
G1 F1500 E25.15563
G1 F1200 X124.993 Y69.342 E25.25256
G0 F3600 X125.349 Y68.532
G1 F1200 X125.349 Y70.92 E25.3717
G1 F1500 E18.8717
;MESH:ChocBody.stl(2)
G0 F3600 X128.533 Y70.92
G0 X129.618 Y70.92
G0 X133.028 Y70.603
G0 X133.296 Y70.872
;TYPE:WALL-INNER
G1 F1500 E25.3717
G1 F1200 X133.296 Y69.272 E25.45153
G1 X129.796 Y69.272 E25.62614
G1 X129.796 Y70.872 E25.70597
G1 X133.296 Y70.872 E25.88058
G0 F3600 X133.696 Y71.272
;TYPE:WALL-OUTER
G1 F1200 X133.696 Y68.872 E26.00032
G1 X129.396 Y68.872 E26.21485
G1 X129.396 Y71.272 E26.33458
G1 X133.696 Y71.272 E26.54911
G0 F3600 X133.696 Y71.072
G0 X132.916 Y70.492
;TYPE:SKIN
G1 F1200 X130.176 Y70.492 E26.68581
G1 X130.176 Y69.652 E26.72772
G1 X132.916 Y69.652 E26.86442
G1 X132.916 Y70.492 E26.90632
G0 F3600 X132.643 Y69.852
G1 F1200 X132.716 Y69.925 E26.91147
G0 F3600 X132.517 Y70.292
G1 F1200 X132.078 Y69.852 E26.94248
G0 F3600 X131.952 Y70.292
G1 F1200 X131.512 Y69.852 E26.97353
G0 F3600 X131.386 Y70.292
G1 F1200 X130.946 Y69.852 E27.00457
G0 F3600 X130.82 Y70.292
G1 F1200 X130.381 Y69.852 E27.03558
G0 F3600 X130.398 Y69.873
G1 F1500 E20.53558
G0 F3600 X129.612 Y69.087
G0 X129.612 Y68.008
G0 X127.296 Y66.507
G0 X126.433 Y65.857
G0 X125.407 Y65.336
G0 X125.346 Y65.101
;TYPE:WALL-INNER
G1 F1500 E27.03558
G1 F923.1 X124.613 Y65.105 E27.08312
G1 F1041.2 X123.982 Y64.842 E27.12243
G1 F1200 X123.43 Y64.503 E27.15475
G1 X123.024 Y64.094 E27.1835
G1 X122.703 Y63.539 E27.21549
G1 X122.525 Y62.899 E27.24863
G1 X122.528 Y62.249 E27.28106
G1 X122.621 Y61.859 E27.30106
G1 X122.838 Y61.334 E27.3294
G1 X123.237 Y60.815 E27.36206
G1 X123.742 Y60.421 E27.39402
G1 X124.357 Y60.164 E27.42727
G1 X124.992 Y60.088 E27.45918
G1 X125.404 Y60.124 E27.47981
G1 X126.024 Y60.312 E27.51213
G1 X126.549 Y60.632 E27.54281
G1 X126.947 Y61.028 E27.57082
G1 X127.161 Y61.345 E27.5899
G1 X127.4 Y61.909 E27.62046
G1 X127.465 Y62.244 E27.63748
G1 X127.472 Y62.816 E27.66602
G1 X127.413 Y63.174 E27.68413
G1 F1137.4 X127.212 Y63.752 E27.71633
G1 F1111.1 X126.989 Y64.092 E27.73824
G1 F1088.4 X126.584 Y64.534 E27.77122
G1 F1113.7 X125.963 Y64.87 E27.80917
G1 F1045.8 X125.346 Y65.101 E27.84689
G0 F3600 X125.407 Y65.336
G0 X121.912 Y65.446
G0 X119.77 Y66.545
G0 X120.109 Y67.02
G1 F1200 X120.321 Y66.838 E27.86083
G1 X120.515 Y66.772 E27.87105
G1 X122.14 Y66.772 E27.95213
G1 X122.14 Y66.272 E27.97707
G1 X122.21 Y65.99 E27.99157
G1 X122.334 Y65.829 E28.00171
G1 X122.658 Y65.671 E28.01969
