;FLAVOR:Marlin
;TIME:6503
;Filament used: 1.79012m
;Layer height: 0.06
;MINX:105.497
;MINY:108.001
;MINZ:0.3
;MAXX:144.499
;MAXY:146.999
;MAXZ:13.98
;TARGET_MACHINE.NAME:Anycubic Vyper
;Generated with Cura_SteamEngine 5.7.0
M140 S60
M105
M190 S60
M104 S200
M105
M109 S200
M82 ;absolute extrusion mode
G21 ;metric values
G90 ;absolute positioning
M82 ;set extruder to absolute mode
M107 ;start with the fan off
G28 X0 Y0 ;move X/Y to min endstops
M300 S1318 P266
G28 Z0 ;move Z to min endstops
G0 Z0.2
G92 E0 ;zero the extruded length
G1 X40 E25 F400 ; Extrude 25mm of filament in a 4cm line. Reduce speed (F) if you have a nozzle smaller than 0.4mm!
G92 E0 ;zero the extruded length again
G1 E-1 F500 ; Retract a little
G1 X80 F4000 ; Quickly wipe away from the filament line
M117 ; Printing…
G5
G92 E0
G92 E0
G1 F1500 E-6.5
;LAYER_COUNT:229
;LAYER:0
M107
;MESH:Cross.stl
G0 F3600 X124.926 Y146.599 Z0.3
;TYPE:WALL-INNER
G1 F1500 E0
G1 F1800 X126.073 Y146.568 E0.05724
G1 X127.217 Y146.467 E0.11454
G1 X128.311 Y146.304 E0.16972
G1 X129.492 Y146.064 E0.22985
G1 X130.627 Y145.754 E0.28855
G1 X131.683 Y145.39 E0.34427
G1 X132.893 Y144.888 E0.40963
G1 X133.923 Y144.385 E0.46682
G1 X134.939 Y143.803 E0.52523
G1 X135.886 Y143.19 E0.58151
G1 X136.812 Y142.504 E0.63901
G1 X137.693 Y141.767 E0.69631
G1 X138.53 Y140.976 E0.75377
G1 X139.318 Y140.134 E0.8113
G1 X140.054 Y139.25 E0.86869
G1 X140.733 Y138.32 E0.92614
G1 X141.358 Y137.353 E0.98358
G1 X141.923 Y136.353 E1.04088
G1 X142.42 Y135.322 E1.09799
G1 X142.862 Y134.255 E1.15561
G1 X143.226 Y133.197 E1.21143
G1 X143.545 Y132.059 E1.27039
G1 X143.789 Y130.931 E1.32797
G1 X143.967 Y129.744 E1.38785
G1 X144.064 Y128.644 E1.44294
G1 X144.099 Y127.496 E1.50024
G1 X144.064 Y126.345 E1.55769
G1 X143.963 Y125.252 E1.61245
G1 X143.789 Y124.06 E1.67255
G1 X143.545 Y122.936 E1.72994
G1 X143.23 Y121.799 E1.7888
G1 X142.862 Y120.741 E1.84468
G1 X142.424 Y119.674 E1.90223
G1 X141.92 Y118.639 E1.95966
G1 X141.357 Y117.642 E2.01678
G1 X140.733 Y116.669 E2.07445
G1 X140.055 Y115.747 E2.13155
G1 X139.314 Y114.858 E2.18929
G1 X138.526 Y114.016 E2.24682
G1 X137.693 Y113.229 E2.30399
G1 X136.808 Y112.488 E2.36158
G1 X135.886 Y111.806 E2.4188
G1 X134.939 Y111.193 E2.47508
G1 X133.915 Y110.607 E2.53394
G1 X132.888 Y110.107 E2.59092
G1 X131.825 Y109.661 E2.64844
G1 X130.767 Y109.293 E2.70432
G1 X129.629 Y108.971 E2.76333
G1 X128.5 Y108.722 E2.82101
G1 X127.318 Y108.536 E2.8807
G1 X126.223 Y108.44 E2.93554
G1 X125.069 Y108.401 E2.99315
G1 X123.926 Y108.428 E3.05019
G1 X122.779 Y108.529 E3.10763
G1 X121.69 Y108.692 E3.16257
G1 X120.504 Y108.936 E3.22298
G1 X119.369 Y109.246 E3.28168
G1 X118.317 Y109.606 E3.33715
G1 X117.107 Y110.108 E3.40251
G1 X116.076 Y110.612 E3.45976
G1 X115.057 Y111.189 E3.51818
G1 X114.111 Y111.809 E3.57461
G1 X113.184 Y112.492 E3.63206
G1 X112.308 Y113.229 E3.68917
G1 X111.466 Y114.024 E3.74694
G1 X110.678 Y114.862 E3.80433
G1 X109.946 Y115.746 E3.86159
G1 X109.263 Y116.677 E3.9192
G1 X108.639 Y117.642 E3.97653
G1 X108.076 Y118.647 E4.034
G1 X107.576 Y119.675 E4.09104
G1 X107.138 Y120.733 E4.14816
G1 X106.77 Y121.799 E4.20443
G1 X106.455 Y122.928 E4.2629
G1 X106.211 Y124.069 E4.32112
G1 X106.029 Y125.252 E4.38083
G1 X105.936 Y126.352 E4.43591
G1 X105.897 Y127.501 E4.49326
G1 X105.932 Y128.643 E4.55026
G1 X106.033 Y129.748 E4.60562
G1 X106.207 Y130.932 E4.66533
G1 X106.451 Y132.056 E4.72271
G1 X106.766 Y133.197 E4.78176
G1 X107.134 Y134.258 E4.83779
G1 X107.576 Y135.322 E4.89527
G1 X108.072 Y136.353 E4.95235
G1 X108.638 Y137.353 E5.00968
G1 X109.263 Y138.324 E5.06729
G1 X109.942 Y139.25 E5.12458
G1 X110.678 Y140.138 E5.18212
G1 X111.466 Y140.976 E5.23951
G1 X112.3 Y141.767 E5.29685
G1 X113.187 Y142.508 E5.35452
G1 X114.111 Y143.191 E5.41184
G1 X115.057 Y143.807 E5.46816
G1 X116.077 Y144.389 E5.52675
G1 X117.107 Y144.892 E5.58394
G1 X118.175 Y145.335 E5.64162
G1 X119.229 Y145.703 E5.69732
G1 X120.367 Y146.025 E5.75632
G1 X121.496 Y146.274 E5.814
G1 X122.679 Y146.46 E5.87375
G1 X123.778 Y146.56 E5.9288
G1 X124.926 Y146.599 E5.98611
G0 F3600 X124.93 Y146.299
G0 X135.633 Y139.351
G0 X135.337 Y139.055
G1 F1800 X135.111 Y139.044 E5.9974
G1 X134.898 Y138.956 E6.0089
G1 X126.884 Y130.941 E6.57436
G1 X126.706 Y131.114 E6.58675
G1 X126.394 Y131.286 E6.60452
G1 X126.104 Y131.36 E6.61945
G1 X123.772 Y131.36 E6.7358
G1 X123.465 Y131.276 E6.75168
G1 X123.169 Y131.1 E6.76886
G1 X123.063 Y130.991 E6.77644
G1 X115.1 Y138.954 E7.33828
G1 X114.886 Y139.044 E7.34986
G1 X114.66 Y139.055 E7.36115
G1 X114.4 Y138.966 E7.37486
G1 X113.537 Y138.097 E7.43596
G1 X113.443 Y137.82 E7.45055
G1 X113.46 Y137.597 E7.46171
G1 X113.55 Y137.392 E7.47288
G1 X120.583 Y130.356 E7.9692
G1 X120.4 Y130.356 E7.97833
G1 X120.108 Y130.281 E7.99337
G1 X119.784 Y130.101 E8.01186
G1 X119.554 Y129.874 E8.02799
G1 X119.304 Y129.4 E8.05472
G1 X119.3 Y125.58 E8.2453
G1 X119.487 Y125.119 E8.27012
G1 X119.668 Y124.894 E8.28453
G1 X119.885 Y124.73 E8.2981
G1 X120.209 Y124.585 E8.31581
G1 X120.494 Y124.551 E8.33013
G1 X113.551 Y117.609 E8.81996
G1 X113.46 Y117.403 E8.83119
G1 X113.443 Y117.178 E8.84245
G1 X113.532 Y116.907 E8.85668
G1 X114.393 Y116.045 E8.91746
G1 X114.662 Y115.946 E8.93177
G1 X114.889 Y115.956 E8.9431
G1 X115.103 Y116.045 E8.95466
G1 X123.609 Y124.552 E9.55484
G1 X126.387 Y124.552 E9.69344
G1 X134.893 Y116.045 E10.29362
G1 X135.108 Y115.956 E10.30523
G1 X135.332 Y115.945 E10.31642
G1 X135.603 Y116.046 E10.33085
G1 X136.463 Y116.905 E10.39149
G1 X136.553 Y117.18 E10.40592
G1 X136.537 Y117.401 E10.41698
G1 X136.445 Y117.609 E10.42832
G1 X129.384 Y124.552 E10.92237
G1 X129.75 Y124.607 E10.94084
G1 X130.033 Y124.739 E10.95642
G1 X130.247 Y124.906 E10.96996
G1 X130.515 Y125.294 E10.99348
G1 X130.603 Y125.579 E11.00837
G1 X130.603 Y129.247 E11.19136
G1 X130.488 Y129.639 E11.21174
G1 X130.337 Y129.885 E11.22614
G1 X130.117 Y130.101 E11.24153
G1 X129.717 Y130.308 E11.264
G1 X129.404 Y130.348 E11.27974
G1 X136.449 Y137.391 E11.77673
G1 X136.54 Y137.597 E11.78797
G1 X136.557 Y137.821 E11.79917
G1 X136.463 Y138.098 E11.81377
G1 X135.596 Y138.966 E11.87497
G1 X135.337 Y139.055 E11.88864
G0 F3600 X135.281 Y138.659
;TYPE:WALL-OUTER
G1 F1800 X135.147 Y138.631 E11.89547
G1 X126.779 Y130.27 E12.48563
G1 X126.748 Y130.423 E12.49342
G1 X126.513 Y130.764 E12.51408
G1 X126.104 Y130.96 E12.5367
G1 X123.772 Y130.96 E12.65305
G1 X123.669 Y130.932 E12.65837
G1 X123.301 Y130.682 E12.68057
G1 X123.134 Y130.354 E12.69893
G1 X114.849 Y138.631 E13.2832
G1 X114.716 Y138.659 E13.28998
G1 X114.628 Y138.628 E13.29464
G1 X113.868 Y137.855 E13.34872
G1 X113.841 Y137.775 E13.35293
G1 X113.871 Y137.643 E13.35969
G1 X121.549 Y129.956 E13.90173
G1 X120.4 Y129.956 E13.95905
G1 X119.978 Y129.751 E13.98246
G1 X119.902 Y129.676 E13.98778
G1 X119.701 Y129.293 E14.00936
G1 X119.703 Y125.621 E14.19256
G1 X119.85 Y125.287 E14.21077
G1 X120.127 Y125.048 E14.22902
G1 X120.369 Y124.952 E14.24201
G1 X121.459 Y124.951 E14.29639
G1 X113.871 Y117.357 E14.83197
G1 X113.841 Y117.224 E14.83878
G1 X113.872 Y117.138 E14.84334
G1 X114.64 Y116.371 E14.89749
G1 X114.795 Y116.345 E14.90533
G1 X114.89 Y116.398 E14.91076
G1 X123.443 Y124.952 E15.51425
G1 X126.553 Y124.952 E15.66941
G1 X135.128 Y116.376 E16.27446
G1 X135.276 Y116.341 E16.28205
G1 X135.356 Y116.371 E16.28631
G1 X136.126 Y117.134 E16.34039
G1 X136.155 Y117.225 E16.34516
G1 X136.125 Y117.357 E16.35191
G1 X128.408 Y124.952 E16.8921
G1 X129.496 Y124.952 E16.94638
G1 X129.865 Y125.102 E16.96625
G1 X130.137 Y125.426 E16.98736
G1 X130.207 Y125.635 E16.99835
G1 X130.207 Y129.195 E17.17596
G1 X130.057 Y129.599 E17.19746
G1 X129.769 Y129.859 E17.21682
G1 X129.5 Y129.948 E17.23096
G1 X128.438 Y129.948 E17.28394
G1 X136.128 Y137.643 E17.82669
G1 X136.159 Y137.775 E17.83345
G1 X136.127 Y137.869 E17.8384
G1 X135.367 Y138.629 E17.89203
G1 X135.281 Y138.659 E17.89657
G0 F3600 X135.147 Y138.631
G0 X135.103 Y138.587
G0 X134.605 Y139.084
G0 X124.93 Y146.299
G0 X124.925 Y146.999
G1 F1800 X126.096 Y146.968 E17.95501
G1 X127.264 Y146.865 E18.01351
G1 X128.381 Y146.698 E18.06986
G1 X129.585 Y146.453 E18.13116
G1 X130.745 Y146.136 E18.19115
G1 X131.825 Y145.764 E18.24814
G1 X133.057 Y145.253 E18.31468
G1 X134.11 Y144.739 E18.37314
G1 X135.147 Y144.145 E18.43276
G1 X136.114 Y143.519 E18.49023
G1 X137.06 Y142.818 E18.54898
G1 X137.959 Y142.066 E18.60745
G1 X138.814 Y141.258 E18.66614
G1 X139.618 Y140.399 E18.72484
G1 X140.37 Y139.496 E18.78347
G1 X141.063 Y138.546 E18.84213
G1 X141.7 Y137.56 E18.9007
G1 X142.278 Y136.539 E18.95923
G1 X142.785 Y135.486 E19.01754
G1 X143.236 Y134.397 E19.07634
G1 X143.608 Y133.316 E19.13338
G1 X143.933 Y132.155 E19.19353
G1 X144.183 Y131.003 E19.25234
G1 X144.365 Y129.792 E19.31343
G1 X144.464 Y128.668 E19.36973
G1 X144.499 Y127.496 E19.42822
G1 X144.464 Y126.321 E19.48687
G1 X144.361 Y125.204 E19.54283
G1 X144.183 Y123.988 E19.60415
G1 X143.933 Y122.84 E19.66276
G1 X143.612 Y121.68 E19.72281
G1 X143.236 Y120.599 E19.77991
G1 X142.789 Y119.51 E19.83864
G1 X142.274 Y118.453 E19.8973
G1 X141.7 Y117.436 E19.95556
G1 X141.063 Y116.442 E20.01446
G1 X140.37 Y115.5 E20.07281
G1 X139.614 Y114.593 E20.13172
G1 X138.81 Y113.734 E20.19042
G1 X137.959 Y112.93 E20.24882
G1 X137.056 Y112.174 E20.30758
G1 X136.114 Y111.477 E20.36604
G1 X135.147 Y110.851 E20.42351
G1 X134.102 Y110.253 E20.48358
G1 X133.053 Y109.743 E20.54177
G1 X131.968 Y109.287 E20.60049
G1 X130.887 Y108.911 E20.65759
G1 X129.727 Y108.583 E20.71773
G1 X128.574 Y108.329 E20.77663
G1 X127.367 Y108.139 E20.83759
G1 X126.247 Y108.04 E20.89369
G1 X125.071 Y108.001 E20.95239
G1 X123.904 Y108.028 E21.01063
G1 X122.732 Y108.131 E21.06932
G1 X121.62 Y108.298 E21.12542
G1 X120.411 Y108.547 E21.18701
G1 X119.251 Y108.864 E21.247
G1 X118.175 Y109.232 E21.30374
G1 X116.943 Y109.743 E21.37028
G1 X115.89 Y110.258 E21.42876
G1 X114.849 Y110.847 E21.48843
G1 X113.883 Y111.481 E21.54608
G1 X112.936 Y112.178 E21.60474
G1 X112.042 Y112.93 E21.66303
G1 X111.182 Y113.742 E21.72203
G1 X110.378 Y114.597 E21.78059
G1 X109.63 Y115.5 E21.83909
G1 X108.933 Y116.45 E21.89787
G1 X108.296 Y117.436 E21.95644
G1 X107.722 Y118.461 E22.01505
G1 X107.211 Y119.511 E22.0733
G1 X106.764 Y120.591 E22.13162
G1 X106.388 Y121.68 E22.1891
G1 X106.067 Y122.832 E22.24876
G1 X105.817 Y123.997 E22.3082
G1 X105.631 Y125.204 E22.36913
G1 X105.536 Y126.328 E22.42541
G1 X105.497 Y127.501 E22.48396
G1 X105.532 Y128.667 E22.54216
G1 X105.635 Y129.796 E22.59872
G1 X105.813 Y131.004 E22.65964
G1 X106.063 Y132.152 E22.71826
G1 X106.384 Y133.316 E22.7785
G1 X106.76 Y134.4 E22.83574
G1 X107.211 Y135.486 E22.8944
G1 X107.718 Y136.539 E22.95271
G1 X108.296 Y137.56 E23.01125
G1 X108.933 Y138.55 E23.06998
G1 X109.626 Y139.496 E23.12848
G1 X110.378 Y140.403 E23.18726
G1 X111.182 Y141.258 E23.24582
G1 X112.034 Y142.066 E23.3044
G1 X112.94 Y142.822 E23.36327
G1 X113.883 Y143.519 E23.42177
G1 X114.849 Y144.149 E23.47931
G1 X115.89 Y144.743 E23.5391
G1 X116.943 Y145.257 E23.59756
G1 X118.032 Y145.709 E23.65639
G1 X119.109 Y146.085 E23.7133
G1 X120.269 Y146.413 E23.77344
G1 X121.422 Y146.667 E23.83234
G1 X122.629 Y146.857 E23.8933
G1 X123.753 Y146.96 E23.94961
G1 X124.925 Y146.999 E24.00812
G0 F3600 X125.125 Y146.994
G0 X125.108 Y146.294
G0 X135.471 Y139.513
G0 X135.389 Y139.431
;TYPE:SKIN
G1 F900 X135.811 Y139.285 E24.0304
G1 X136.78 Y138.316 E24.09876
G1 X136.926 Y137.906 E24.12048
G1 X136.906 Y137.492 E24.14116
G1 X136.766 Y137.178 E24.15831
G1 X130.115 Y130.524 E24.62768
G1 X130.341 Y130.4 E24.64054
G1 X130.631 Y130.118 E24.66072
G1 X130.831 Y129.794 E24.67972
G1 X130.981 Y129.269 E24.70696
G1 X130.988 Y125.547 E24.89265
G1 X130.867 Y125.152 E24.91326
G1 X130.551 Y124.68 E24.9416
G1 X130.119 Y124.359 E24.96845
G1 X136.757 Y117.84 E25.43262
G1 X136.902 Y117.495 E25.45129
G1 X136.922 Y117.091 E25.47147
G1 X136.78 Y116.694 E25.4925
G1 X135.808 Y115.724 E25.56101
G1 X135.384 Y115.569 E25.58353
G1 X135.016 Y115.585 E25.60191
G1 X134.671 Y115.725 E25.62049
G1 X126.225 Y124.172 E26.21643
G1 X123.767 Y124.172 E26.33906
G1 X115.322 Y115.726 E26.93494
G1 X114.979 Y115.585 E26.95344
G1 X114.566 Y115.58 E26.97405
G1 X114.15 Y115.75 E26.99647
G1 X113.212 Y116.69 E27.06272
G1 X113.074 Y117.089 E27.08378
G1 X113.094 Y117.5 E27.10431
G1 X113.229 Y117.818 E27.12155
G1 X119.769 Y124.364 E27.58319
G1 X119.439 Y124.584 E27.60298
G1 X119.147 Y124.939 E27.62591
G1 X118.922 Y125.529 E27.65741
G1 X118.927 Y129.492 E27.85513
G1 X119.218 Y130.053 E27.88666
G1 X119.555 Y130.399 E27.91075
G1 X119.847 Y130.55 E27.92715
G1 X113.23 Y137.182 E28.39455
G1 X113.09 Y137.496 E28.4117
G1 X113.07 Y137.906 E28.43218
G1 X113.214 Y138.314 E28.45377
G1 X114.186 Y139.283 E28.52224
G1 X114.604 Y139.431 E28.54436
G1 X114.975 Y139.411 E28.5629
G1 X115.32 Y139.268 E28.58153
G1 X123.093 Y131.499 E29.12982
G1 X123.267 Y131.601 E29.13988
G1 X123.742 Y131.74 E29.16457
G1 X126.104 Y131.74 E29.28241
G1 X126.53 Y131.638 E29.30427
G1 X126.847 Y131.448 E29.3227
G1 X134.671 Y139.267 E29.87455
G1 X134.986 Y139.401 E29.89163
G1 X135.389 Y139.431 E29.91179
G0 F3600 X135.471 Y139.513
G0 X124.929 Y146.215
G1 F900 X123.804 Y146.18 E29.96795
G1 X122.773 Y146.089 E30.01958
G1 X121.57 Y145.899 E30.08034
G1 X120.457 Y145.653 E30.13721
G1 X119.341 Y145.337 E30.19508
G1 X118.28 Y144.965 E30.25117
G1 X117.259 Y144.541 E30.30633
G1 X116.254 Y144.051 E30.36211
G1 X115.233 Y143.465 E30.42084
G1 X114.327 Y142.875 E30.47478
G1 X113.424 Y142.206 E30.53085
G1 X112.55 Y141.478 E30.5876
G1 X111.759 Y140.727 E30.64201
G1 X110.958 Y139.883 E30.70007
G1 X110.238 Y139.013 E30.75641
G1 X109.573 Y138.102 E30.81268
G1 X108.96 Y137.152 E30.86908
G1 X108.41 Y136.179 E30.92484
G1 X107.923 Y135.162 E30.9811
G1 X107.487 Y134.116 E31.03764
G1 X107.136 Y133.112 E31.0907
G1 X106.823 Y131.964 E31.15006
G1 X106.581 Y130.864 E31.20626
G1 X106.411 Y129.7 E31.26494
G1 X106.308 Y128.615 E31.31932
G1 X106.277 Y127.505 E31.37472
G1 X106.312 Y126.376 E31.43107
G1 X106.395 Y125.344 E31.48272
G1 X106.581 Y124.141 E31.54346
G1 X106.823 Y123.017 E31.60082
G1 X107.143 Y121.88 E31.65975
G1 X107.492 Y120.867 E31.7132
G1 X107.923 Y119.827 E31.76937
G1 X108.41 Y118.825 E31.82495
G1 X108.964 Y117.84 E31.88133
G1 X109.573 Y116.894 E31.93746
G1 X110.242 Y115.983 E31.99385
G1 X110.959 Y115.113 E32.05009
G1 X111.73 Y114.294 E32.10621
G1 X112.562 Y113.51 E32.16324
G1 X113.416 Y112.79 E32.21897
G1 X114.327 Y112.121 E32.27536
G1 X115.233 Y111.523 E32.32952
G1 X116.25 Y110.946 E32.38785
G1 X117.258 Y110.455 E32.44379
G1 X118.448 Y109.964 E32.50802
G1 X119.448 Y109.616 E32.56084
G1 X120.587 Y109.307 E32.61972
G1 X121.807 Y109.058 E32.68184
G1 X122.828 Y108.907 E32.73333
G1 X123.948 Y108.808 E32.78943
G1 X125.067 Y108.781 E32.84527
G1 X126.196 Y108.816 E32.90163
G1 X127.219 Y108.903 E32.95285
G1 X128.426 Y109.093 E33.01381
G1 X129.534 Y109.338 E33.07042
G1 X130.68 Y109.668 E33.12992
G1 X131.629 Y109.988 E33.17988
G1 X132.725 Y110.451 E33.23924
G1 X133.734 Y110.941 E33.2952
G1 X134.739 Y111.515 E33.35294
G1 X135.665 Y112.117 E33.40805
G1 X136.568 Y112.786 E33.46411
G1 X137.435 Y113.51 E33.52047
G1 X138.254 Y114.282 E33.57662
G1 X139.026 Y115.105 E33.63291
G1 X139.754 Y115.984 E33.68986
G1 X140.415 Y116.882 E33.74549
G1 X141.028 Y117.836 E33.80206
G1 X141.582 Y118.814 E33.85814
G1 X142.073 Y119.826 E33.91425
G1 X142.505 Y120.872 E33.97071
G1 X142.856 Y121.88 E34.02397
G1 X143.173 Y123.024 E34.08319
G1 X143.411 Y124.124 E34.13934
G1 X143.585 Y125.292 E34.19825
G1 X143.684 Y126.364 E34.25196
G1 X143.715 Y127.492 E34.30826
G1 X143.684 Y128.616 E34.36436
G1 X143.597 Y129.648 E34.41603
G1 X143.415 Y130.855 E34.47693
