;FLAVOR:Marlin
;TIME:881
;Filament used: 0.1715m
;Layer height: 0.1
;MINX:100.4
;MINY:115.1
;MINZ:0.3
;MAXX:149.7
;MAXY:130.153
;MAXZ:4.2
;TARGET_MACHINE.NAME:Anycubic Vyper
;Generated with Cura_SteamEngine 5.7.0
M140 S60
M105
M190 S60
M104 S200
M105
M109 S200
M82 ;absolute extrusion mode
G21 ;metric values
G90 ;absolute positioning
M82 ;set extruder to absolute mode
M107 ;start with the fan off
G28 X0 Y0 ;move X/Y to min endstops
M300 S1318 P266
G28 Z0 ;move Z to min endstops
G0 Z0.2
G92 E0 ;zero the extruded length
G1 X40 E25 F400 ; Extrude 25mm of filament in a 4cm line. Reduce speed (F) if you have a nozzle smaller than 0.4mm!
G92 E0 ;zero the extruded length again
G1 E-1 F500 ; Retract a little
G1 X80 F4000 ; Quickly wipe away from the filament line
M117 ; Printing…
G5
G92 E0
G92 E0
G1 F1500 E-6.5
;LAYER_COUNT:40
;LAYER:0
M107
;MESH:ChochStem01.stl(5)
G0 F3600 X106.298 Y116.466 Z0.3
;TYPE:WALL-INNER
G1 F1500 E0
G1 F900 X106.037 Y116.283 E0.0159
G1 X105.939 Y116.115 E0.02561
G1 X105.9 Y115.501 E0.0563
G1 X104.202 Y115.503 E0.14101
G1 X104.161 Y116.115 E0.17162
G1 X104.063 Y116.283 E0.18132
G1 X103.802 Y116.466 E0.19722
G1 X103.601 Y116.5 E0.20739
G1 X100.799 Y116.503 E0.34719
G1 X100.8 Y119.499 E0.49666
G1 X109.299 Y119.492 E0.92067
G1 X109.293 Y116.503 E1.0698
G1 X106.499 Y116.5 E1.20919
G1 X106.298 Y116.466 E1.21936
G0 F3600 X106.448 Y116.1
;TYPE:WALL-OUTER
G1 F900 X106.345 Y116.028 E1.22563
G1 X106.3 Y115.9 E1.2324
G1 X106.3 Y115.324 E1.26113
G1 X106.263 Y115.197 E1.26773
G1 X106.134 Y115.1 E1.27579
G1 X103.981 Y115.104 E1.3832
G1 X103.85 Y115.179 E1.39073
G1 X103.804 Y115.278 E1.39618
G1 X103.8 Y115.95 E1.4297
G1 X103.652 Y116.1 E1.44022
G1 X100.582 Y116.104 E1.59338
G1 X100.446 Y116.183 E1.60123
G1 X100.4 Y116.259 E1.60566
G1 X100.4 Y119.678 E1.77623
G1 X100.461 Y119.837 E1.78473
G1 X100.593 Y119.9 E1.79203
G1 X109.521 Y119.892 E2.23745
G1 X109.611 Y119.851 E2.24238
G1 X109.7 Y119.698 E2.25121
G1 X109.692 Y116.281 E2.42169
G1 X109.617 Y116.15 E2.42922
G1 X109.519 Y116.104 E2.43462
G1 X106.448 Y116.1 E2.58783
G0 F3600 X106.345 Y116.028
G0 X106.321 Y115.959
G0 X106.141 Y116.809
;TYPE:SKIN
G1 F900 X106.464 Y116.877 E2.6043
G1 X108.912 Y116.88 E2.72643
G1 X108.915 Y119.112 E2.83779
G1 X101.18 Y119.116 E3.22369
G1 X101.177 Y116.88 E3.33524
G1 X103.596 Y116.88 E3.45593
G1 X103.975 Y116.797 E3.47528
G1 X104.339 Y116.541 E3.49748
G1 X104.515 Y116.248 E3.51454
G1 X104.563 Y115.88 E3.53305
G1 X105.535 Y115.88 E3.58154
G1 X105.581 Y116.248 E3.60005
G1 X105.722 Y116.5 E3.61445
G1 X105.877 Y116.661 E3.6256
G1 X106.141 Y116.809 E3.6407
G0 F3600 X108.713 Y117.198
G1 F900 X108.595 Y117.08 E3.64903
G0 F3600 X108.028 Y117.078
G1 F900 X108.713 Y117.764 E3.69739
G0 F3600 X108.715 Y118.331
G1 F900 X107.46 Y117.077 E3.78591
G0 F3600 X106.893 Y117.076
G1 F900 X108.716 Y118.898 E3.91449
G0 F3600 X108.164 Y118.912
G1 F900 X106.295 Y117.043 E4.04636
G1 X106.225 Y116.973
G0 F3600 X104.602 Y116.481
G1 F900 X107.033 Y118.913 E4.21792
G0 F3600 X106.468 Y118.913
G1 F900 X104.339 Y116.784 E4.36813
G0 F3600 X103.991 Y117.002
G1 F900 X105.903 Y118.913 E4.503
G0 F3600 X105.337 Y118.913
G1 F900 X103.503 Y117.08 E4.63236
G0 F3600 X102.938 Y117.08
G1 F900 X104.772 Y118.914 E4.76176
G0 F3600 X104.206 Y118.914
G1 F900 X102.372 Y117.08 E4.89116
G0 F3600 X101.806 Y117.08
G1 F900 X103.641 Y118.915 E5.02063
G0 F3600 X103.076 Y118.915
G1 F900 X101.376 Y117.216 E5.14053
G0 F3600 X101.377 Y117.782
G1 F900 X102.511 Y118.916 E5.22054
G0 F3600 X101.945 Y118.916
G1 F900 X101.379 Y118.349 E5.26051
G1 X101.309 Y118.279
G0 F3600 X104.422 Y116.726
G0 X104.766 Y116.08
G1 F900 X107.598 Y118.912 E5.46033
G1 X107.668 Y118.982
G0 F3600 X107.669 Y118.895
G1 F1500 E-1.03967
;MESH:ChochStem01.stl(4)
G0 F3600 X106.293 Y119.696
G0 X106.294 Y120.761
G0 X106.069 Y124.236
G0 X106.072 Y125.317
G0 X106.073 Y126.327
G0 X106.298 Y126.466
;TYPE:WALL-INNER
G1 F1500 E5.46033
G1 F900 X106.037 Y126.283 E5.47623
G1 X105.939 Y126.115 E5.48593
G1 X105.9 Y125.501 E5.51663
G1 X104.202 Y125.503 E5.60134
G1 X104.161 Y126.115 E5.63194
G1 X104.063 Y126.283 E5.64165
G1 X103.802 Y126.466 E5.65755
G1 X103.601 Y126.5 E5.66772
G1 X100.799 Y126.503 E5.80751
G1 X100.8 Y129.499 E5.95698
G1 X109.299 Y129.492 E6.381
G1 X109.293 Y126.503 E6.53012
G1 X106.499 Y126.5 E6.66952
G1 X106.298 Y126.466 E6.67969
G0 F3600 X106.448 Y126.1
;TYPE:WALL-OUTER
G1 F900 X106.345 Y126.028 E6.68596
G1 X106.3 Y125.9 E6.69272
G1 X106.3 Y125.267 E6.7243
G1 X106.134 Y125.1 E6.73605
G1 X103.981 Y125.104 E6.84347
G1 X103.85 Y125.179 E6.851
G1 X103.804 Y125.278 E6.85644
G1 X103.8 Y125.95 E6.88997
G1 X103.652 Y126.1 E6.90048
G1 X100.582 Y126.104 E7.05365
G1 X100.458 Y126.174 E7.06075
G1 X100.4 Y126.325 E7.06882
G1 X100.4 Y129.74 E7.2392
G1 X100.437 Y129.806 E7.24297
G1 X100.601 Y129.9 E7.2524
G1 X109.521 Y129.892 E7.69742
G1 X109.611 Y129.851 E7.70236
G1 X109.7 Y129.698 E7.71119
G1 X109.692 Y126.281 E7.88166
G1 X109.617 Y126.15 E7.88919
G1 X109.519 Y126.104 E7.89459
G1 X106.448 Y126.1 E8.04781
G0 F3600 X106.345 Y126.028
G0 X106.321 Y125.959
G0 X106.141 Y126.809
;TYPE:SKIN
G1 F900 X106.464 Y126.877 E8.06427
G1 X108.912 Y126.88 E8.18641
G1 X108.915 Y129.112 E8.29776
G1 X101.18 Y129.116 E8.68366
G1 X101.177 Y126.88 E8.79522
G1 X103.596 Y126.88 E8.9159
G1 X103.975 Y126.797 E8.93526
G1 X104.339 Y126.541 E8.95746
G1 X104.515 Y126.248 E8.97451
G1 X104.563 Y125.88 E8.99303
G1 X105.535 Y125.88 E9.04152
G1 X105.581 Y126.248 E9.06002
G1 X105.722 Y126.5 E9.07443
G1 X105.877 Y126.661 E9.08558
G1 X106.141 Y126.809 E9.10068
G0 F3600 X108.713 Y127.38
G1 F900 X108.411 Y127.079 E9.12195
G0 F3600 X107.844 Y127.078
G1 F900 X108.714 Y127.947 E9.1833
G0 F3600 X108.715 Y128.514
G1 F900 X107.277 Y127.076 E9.28476
G0 F3600 X106.71 Y127.075
G1 F900 X108.547 Y128.912 E9.41437
G0 F3600 X107.982 Y128.912
G1 F900 X106.058 Y126.988 E9.55012
G1 X105.988 Y126.918
G0 F3600 X105.401 Y126.332
G1 F900 X105.15 Y126.08 E9.56786
G0 F3600 X104.719 Y126.215
G1 F900 X107.417 Y128.913 E9.75822
G0 F3600 X106.851 Y128.913
G1 F900 X104.533 Y126.595 E9.92177
G0 F3600 X104.232 Y126.86
G1 F900 X106.285 Y128.913 E10.06662
G0 F3600 X105.72 Y128.913
G1 F900 X103.847 Y127.04 E10.19877
G0 F3600 X103.322 Y127.081
G1 F900 X105.155 Y128.913 E10.32806
G0 F3600 X104.59 Y128.914
G1 F900 X102.756 Y127.081 E10.45742
G0 F3600 X102.19 Y127.081
G1 F900 X104.024 Y128.914 E10.58679
G0 F3600 X103.459 Y128.915
G1 F900 X101.625 Y127.081 E10.71618
G0 F3600 X101.376 Y127.398
G1 F900 X102.893 Y128.915 E10.82322
G0 F3600 X102.328 Y128.915
G1 F900 X101.378 Y127.965 E10.89024
G0 F3600 X101.379 Y128.532
G1 F900 X101.763 Y128.915 E10.9173
G0 F3600 X101.764 Y128.899
G1 F1500 E4.4173
;MESH:ChochStem01.stl
G0 F3600 X109.494 Y126.829
G0 X110.56 Y126.827
G0 X119.536 Y126.829
G0 X120.621 Y126.829
G0 X126.297 Y126.799
G0 X126.298 Y126.466
;TYPE:WALL-INNER
G1 F1500 E10.9173
G1 F900 X126.037 Y126.283 E10.93321
G1 X125.939 Y126.115 E10.94291
G1 X125.9 Y125.501 E10.9736
G1 X124.202 Y125.503 E11.05832
G1 X124.161 Y126.115 E11.08892
G1 X124.063 Y126.283 E11.09862
G1 X123.802 Y126.466 E11.11453
G1 X123.601 Y126.5 E11.1247
G1 X120.799 Y126.503 E11.26449
G1 X120.8 Y129.499 E11.41396
G1 X129.299 Y129.492 E11.83798
G1 X129.293 Y126.503 E11.9871
G1 X126.499 Y126.5 E12.12649
G1 X126.298 Y126.466 E12.13666
G0 F3600 X126.448 Y126.1
;TYPE:WALL-OUTER
G1 F900 X126.345 Y126.028 E12.14293
G1 X126.3 Y125.9 E12.1497
G1 X126.3 Y125.289 E12.18018
G1 X126.191 Y125.132 E12.18972
G1 X126.07 Y125.1 E12.19596
G1 X123.981 Y125.104 E12.30018
G1 X123.85 Y125.179 E12.30771
G1 X123.804 Y125.278 E12.31316
G1 X123.8 Y125.95 E12.34669
G1 X123.652 Y126.1 E12.3572
G1 X120.582 Y126.104 E12.51036
G1 X120.458 Y126.174 E12.51747
G1 X120.4 Y126.325 E12.52554
G1 X120.4 Y129.74 E12.69591
G1 X120.437 Y129.806 E12.69969
G1 X120.601 Y129.9 E12.70912
G1 X129.521 Y129.892 E13.15414
G1 X129.611 Y129.851 E13.15907
G1 X129.7 Y129.698 E13.1679
G1 X129.692 Y126.281 E13.33838
G1 X129.617 Y126.15 E13.34591
G1 X129.519 Y126.104 E13.35131
G1 X126.448 Y126.1 E13.50452
G0 F3600 X126.345 Y126.028
G0 X126.321 Y125.959
G0 X126.141 Y126.809
;TYPE:SKIN
G1 F900 X126.464 Y126.877 E13.52099
G1 X128.912 Y126.88 E13.64312
G1 X128.915 Y129.112 E13.75448
G1 X121.18 Y129.116 E14.14038
G1 X121.177 Y126.88 E14.25193
G1 X123.596 Y126.88 E14.37262
G1 X123.975 Y126.797 E14.39197
G1 X124.339 Y126.541 E14.41418
G1 X124.515 Y126.248 E14.43123
G1 X124.563 Y125.88 E14.44974
G1 X125.535 Y125.88 E14.49824
G1 X125.581 Y126.248 E14.51674
G1 X125.722 Y126.5 E14.53115
G1 X125.877 Y126.661 E14.5423
G1 X126.141 Y126.809 E14.5574
G0 F3600 X128.713 Y127.582
G1 F900 X128.21 Y127.079 E14.59288
G0 F3600 X127.643 Y127.078
G1 F900 X128.714 Y128.148 E14.66841
G0 F3600 X128.715 Y128.715
G1 F900 X127.076 Y127.076 E14.78405
G0 F3600 X126.509 Y127.075
G1 F900 X128.346 Y128.912 E14.91366
G0 F3600 X127.781 Y128.912
G1 F900 X124.949 Y126.08 E15.11348
G0 F3600 X124.671 Y126.368
G1 F900 X127.216 Y128.913 E15.29304
G0 F3600 X126.65 Y128.913
G1 F900 X124.446 Y126.709 E15.44855
G0 F3600 X124.115 Y126.943
G1 F900 X126.085 Y128.913 E15.58754
G0 F3600 X125.519 Y128.913
G1 F900 X123.674 Y127.069 E15.71768
G0 F3600 X123.121 Y127.081
G1 F900 X124.954 Y128.914 E15.84701
G0 F3600 X124.389 Y128.914
G1 F900 X122.555 Y127.081 E15.97637
G0 F3600 X121.989 Y127.081
G1 F900 X123.824 Y128.915 E16.1058
G0 F3600 X123.258 Y128.915
G1 F900 X121.424 Y127.081 E16.2352
G0 F3600 X121.378 Y127.6
G1 F900 X122.692 Y128.915 E16.32795
G0 F3600 X122.127 Y128.915
G1 F900 X121.378 Y128.167 E16.38076
G0 F3600 X121.379 Y128.733
G1 F900 X121.562 Y128.915 E16.39364
G0 F3600 X121.563 Y128.899
G1 F1500 E9.89364
;MESH:ChochStem01.stl(1)
G0 F3600 X124.011 Y126.313
G0 X122.952 Y125.248
G0 X124.009 Y120.763
G0 X124.008 Y119.698
G0 X126.297 Y116.799
G0 X126.298 Y116.466
;TYPE:WALL-INNER
G1 F1500 E16.39364
G1 F900 X126.037 Y116.283 E16.40954
G1 X125.939 Y116.115 E16.41924
G1 X125.9 Y115.501 E16.44994
G1 X124.202 Y115.503 E16.53465
G1 X124.161 Y116.115 E16.56525
G1 X124.063 Y116.283 E16.57495
G1 X123.802 Y116.466 E16.59086
G1 X123.601 Y116.5 E16.60103
G1 X120.799 Y116.503 E16.74082
G1 X120.8 Y119.499 E16.89029
G1 X129.299 Y119.492 E17.31431
G1 X129.293 Y116.503 E17.46343
G1 X126.499 Y116.5 E17.60282
G1 X126.298 Y116.466 E17.61299
G0 F3600 X126.448 Y116.1
;TYPE:WALL-OUTER
G1 F900 X126.345 Y116.028 E17.61926
G1 X126.3 Y115.9 E17.62603
G1 X126.3 Y115.325 E17.65472
G1 X126.232 Y115.162 E17.66353
G1 X126.061 Y115.1 E17.67261
G1 X123.981 Y115.104 E17.77638
G1 X123.85 Y115.179 E17.78391
G1 X123.804 Y115.278 E17.78935
G1 X123.8 Y115.95 E17.82288
G1 X123.652 Y116.1 E17.83339
G1 X120.582 Y116.104 E17.98656
G1 X120.446 Y116.183 E17.9944
G1 X120.4 Y116.259 E17.99884
G1 X120.4 Y119.678 E18.16941
G1 X120.461 Y119.837 E18.17791
G1 X120.593 Y119.9 E18.1852
G1 X129.521 Y119.892 E18.63062
G1 X129.611 Y119.851 E18.63556
G1 X129.7 Y119.698 E18.64439
G1 X129.692 Y116.281 E18.81486
G1 X129.617 Y116.15 E18.8224
G1 X129.519 Y116.104 E18.8278
G1 X126.448 Y116.1 E18.98101
G0 F3600 X126.345 Y116.028
G0 X126.321 Y115.959
G0 X126.141 Y116.809
;TYPE:SKIN
G1 F900 X126.464 Y116.877 E18.99748
G1 X128.912 Y116.88 E19.11961
G1 X128.915 Y119.112 E19.23096
G1 X121.18 Y119.116 E19.61686
G1 X121.177 Y116.88 E19.72842
G1 X123.596 Y116.88 E19.8491
G1 X123.975 Y116.797 E19.86846
G1 X124.339 Y116.541 E19.89066
G1 X124.515 Y116.248 E19.90771
G1 X124.563 Y115.88 E19.92623
G1 X125.535 Y115.88 E19.97472
G1 X125.581 Y116.248 E19.99322
G1 X125.722 Y116.5 E20.00763
G1 X125.877 Y116.661 E20.01878
G1 X126.141 Y116.809 E20.03388
G0 F3600 X128.713 Y117.399
G1 F900 X128.393 Y117.079 E20.05646
G0 F3600 X127.826 Y117.078
G1 F900 X128.714 Y117.966 E20.11911
G0 F3600 X128.715 Y118.532
G1 F900 X127.259 Y117.076 E20.22184
G0 F3600 X126.692 Y117.075
G1 F900 X128.529 Y118.912 E20.35145
G0 F3600 X127.963 Y118.912
G1 F900 X126.022 Y116.971 E20.4884
G1 X125.952 Y116.901
G0 F3600 X125.424 Y116.373
G1 F900 X125.131 Y116.08 E20.50907
G0 F3600 X124.717 Y116.231
G1 F900 X127.398 Y118.913 E20.69827
G0 F3600 X126.832 Y118.913
G1 F900 X124.526 Y116.606 E20.861
G0 F3600 X124.222 Y116.868
G1 F900 X126.267 Y118.913 E21.00529
G0 F3600 X125.702 Y118.913
G1 F900 X123.831 Y117.042 E21.1373
G0 F3600 X123.303 Y117.081
G1 F900 X125.136 Y118.913 E21.26659
G0 F3600 X124.571 Y118.914
G1 F900 X122.737 Y117.081 E21.39595
G0 F3600 X122.172 Y117.081
G1 F900 X124.005 Y118.914 E21.52528
G0 F3600 X123.44 Y118.915
G1 F900 X121.606 Y117.081 E21.65468
G0 F3600 X121.377 Y117.417
G1 F900 X122.875 Y118.915 E21.76037
G0 F3600 X122.31 Y118.916
G1 F900 X121.378 Y117.984 E21.82613
G0 F3600 X121.379 Y118.551
G1 F900 X121.744 Y118.916 E21.85188
G0 F3600 X121.745 Y118.899
G1 F1500 E15.35188
;MESH:ChochStem01.stl(3)
G0 F3600 X129.494 Y116.829
G0 X130.56 Y116.827
G0 X139.536 Y116.829
G0 X140.621 Y116.829
G0 X146.297 Y116.799
G0 X146.298 Y116.466
;TYPE:WALL-INNER
G1 F1500 E21.85188
G1 F900 X146.037 Y116.283 E21.86778
G1 X145.939 Y116.115 E21.87749
G1 X145.9 Y115.501 E21.90818
G1 X144.202 Y115.503 E21.9929
G1 X144.161 Y116.115 E22.0235
G1 X144.063 Y116.283 E22.0332
G1 X143.802 Y116.466 E22.0491
G1 X143.601 Y116.5 E22.05927
G1 X140.799 Y116.503 E22.19907
G1 X140.8 Y119.499 E22.34854
G1 X149.299 Y119.492 E22.77255
G1 X149.293 Y116.503 E22.92168
G1 X146.499 Y116.5 E23.06107
G1 X146.298 Y116.466 E23.07124
G0 F3600 X146.448 Y116.1
;TYPE:WALL-OUTER
G1 F900 X146.345 Y116.028 E23.07751
G1 X146.3 Y115.9 E23.08428
G1 X146.3 Y115.325 E23.11297
G1 X146.231 Y115.16 E23.12189
G1 X146.097 Y115.1 E23.12921
G1 X143.981 Y115.104 E23.23478
G1 X143.85 Y115.179 E23.24231
G1 X143.804 Y115.278 E23.24776
G1 X143.8 Y115.95 E23.28129
G1 X143.652 Y116.1 E23.2918
G1 X140.582 Y116.104 E23.44496
G1 X140.446 Y116.183 E23.45281
G1 X140.4 Y116.259 E23.45724
G1 X140.4 Y119.74 E23.63091
G1 X140.437 Y119.806 E23.63468
G1 X140.601 Y119.9 E23.64411
G1 X149.521 Y119.892 E24.08913
G1 X149.611 Y119.851 E24.09407
G1 X149.7 Y119.698 E24.1029
G1 X149.692 Y116.281 E24.27337
G1 X149.617 Y116.15 E24.28091
G1 X149.519 Y116.104 E24.28631
G1 X146.448 Y116.1 E24.43952
G0 F3600 X146.345 Y116.028
G0 X146.321 Y115.959
G0 X146.141 Y116.809
;TYPE:SKIN
G1 F900 X146.464 Y116.877 E24.45599
G1 X148.912 Y116.88 E24.57812
G1 X148.915 Y119.112 E24.68947
G1 X141.18 Y119.116 E25.07537
G1 X141.177 Y116.88 E25.18693
G1 X143.596 Y116.88 E25.30761
G1 X143.975 Y116.797 E25.32697
G1 X144.339 Y116.541 E25.34917
G1 X144.515 Y116.248 E25.36622
G1 X144.563 Y115.88 E25.38474
G1 X145.535 Y115.88 E25.43323
G1 X145.581 Y116.248 E25.45173
G1 X145.722 Y116.5 E25.46614
G1 X145.877 Y116.661 E25.47729
G1 X146.141 Y116.809 E25.49239
G0 F3600 X148.713 Y117.6
G1 F900 X148.192 Y117.079 E25.52915
G0 F3600 X147.625 Y117.078
G1 F900 X148.714 Y118.167 E25.60598
G0 F3600 X148.715 Y118.734
G1 F900 X147.058 Y117.076 E25.72293
G0 F3600 X146.491 Y117.075
G1 F900 X148.328 Y118.912 E25.85254
G0 F3600 X147.762 Y118.912
G1 F900 X144.93 Y116.08 E26.05235
G0 F3600 X144.664 Y116.38
G1 F900 X147.197 Y118.913 E26.23107
G0 F3600 X146.631 Y118.913
G1 F900 X144.435 Y116.716 E26.38604
G0 F3600 X144.104 Y116.951
G1 F900 X146.066 Y118.913 E26.52447
G0 F3600 X145.501 Y118.913
G1 F900 X143.658 Y117.071 E26.65447
G0 F3600 X143.101 Y117.08
G1 F900 X144.936 Y118.914 E26.78391
G0 F3600 X144.37 Y118.914
G1 F900 X142.536 Y117.08 E26.91331
G0 F3600 X141.97 Y117.08
G1 F900 X143.805 Y118.915 E27.04277
G0 F3600 X143.239 Y118.915
G1 F900 X141.404 Y117.08 E27.17224
G0 F3600 X141.378 Y117.619
G1 F900 X142.674 Y118.915 E27.26368
G0 F3600 X142.109 Y118.916
G1 F900 X141.378 Y118.185 E27.31526
G0 F3600 X141.379 Y118.752
