;FLAVOR:Marlin
;TIME:6664
;Filament used: 1.81725m
;Layer height: 0.06
;MINX:105.497
;MINY:108.001
;MINZ:0.3
;MAXX:144.499
;MAXY:146.999
;MAXZ:13.98
;TARGET_MACHINE.NAME:Anycubic Vyper
;Generated with Cura_SteamEngine 5.7.0
M140 S60
M105
M190 S60
M104 S200
M105
M109 S200
M82 ;absolute extrusion mode
G21 ;metric values
G90 ;absolute positioning
M82 ;set extruder to absolute mode
M107 ;start with the fan off
G28 X0 Y0 ;move X/Y to min endstops
M300 S1318 P266
G28 Z0 ;move Z to min endstops
G0 Z0.2
G92 E0 ;zero the extruded length
G1 X40 E25 F400 ; Extrude 25mm of filament in a 4cm line. Reduce speed (F) if you have a nozzle smaller than 0.4mm!
G92 E0 ;zero the extruded length again
G1 E-1 F500 ; Retract a little
G1 X80 F4000 ; Quickly wipe away from the filament line
M117 ; Printing…
G5
G92 E0
G92 E0
G1 F1500 E-6.5
;LAYER_COUNT:229
;LAYER:0
M107
;MESH:Square.stl
G0 F3600 X124.926 Y146.599 Z0.3
;TYPE:WALL-INNER
G1 F1500 E0
G1 F1800 X126.073 Y146.568 E0.05724
G1 X127.217 Y146.467 E0.11454
G1 X128.311 Y146.304 E0.16972
G1 X129.492 Y146.064 E0.22985
G1 X130.627 Y145.754 E0.28855
G1 X131.683 Y145.39 E0.34427
G1 X132.893 Y144.888 E0.40963
G1 X133.922 Y144.385 E0.46677
G1 X134.939 Y143.803 E0.52523
G1 X135.885 Y143.19 E0.58147
G1 X136.812 Y142.504 E0.639
G1 X137.693 Y141.767 E0.69631
G1 X138.53 Y140.976 E0.75376
G1 X139.317 Y140.134 E0.81126
G1 X140.054 Y139.25 E0.86868
G1 X140.733 Y138.32 E0.92613
G1 X141.358 Y137.353 E0.98358
G1 X141.923 Y136.353 E1.04088
G1 X142.42 Y135.322 E1.09798
G1 X142.862 Y134.255 E1.1556
G1 X143.226 Y133.197 E1.21142
G1 X143.545 Y132.059 E1.27038
G1 X143.789 Y130.931 E1.32796
G1 X143.967 Y129.745 E1.38779
G1 X144.064 Y128.644 E1.44294
G1 X144.099 Y127.496 E1.50024
G1 X144.064 Y126.345 E1.55769
G1 X143.964 Y125.252 E1.61244
G1 X143.789 Y124.06 E1.67255
G1 X143.545 Y122.936 E1.72993
G1 X143.23 Y121.799 E1.7888
G1 X142.862 Y120.741 E1.84468
G1 X142.424 Y119.674 E1.90222
G1 X141.92 Y118.639 E1.95966
G1 X141.357 Y117.642 E2.01678
G1 X140.733 Y116.669 E2.07445
G1 X140.055 Y115.747 E2.13155
G1 X139.314 Y114.858 E2.18928
G1 X138.526 Y114.016 E2.24682
G1 X137.693 Y113.229 E2.30399
G1 X136.808 Y112.488 E2.36158
G1 X135.886 Y111.806 E2.41879
G1 X134.939 Y111.193 E2.47507
G1 X133.915 Y110.607 E2.53394
G1 X132.888 Y110.107 E2.59092
G1 X131.825 Y109.661 E2.64843
G1 X130.767 Y109.293 E2.70432
G1 X129.629 Y108.971 E2.76332
G1 X128.5 Y108.722 E2.821
G1 X127.318 Y108.537 E2.88069
G1 X126.223 Y108.44 E2.93554
G1 X125.068 Y108.401 E2.99319
G1 X123.926 Y108.428 E3.05018
G1 X122.779 Y108.529 E3.10763
G1 X121.69 Y108.691 E3.16256
G1 X120.504 Y108.936 E3.22297
G1 X119.369 Y109.246 E3.28167
G1 X118.317 Y109.606 E3.33715
G1 X117.107 Y110.108 E3.4025
G1 X116.076 Y110.612 E3.45976
G1 X115.057 Y111.189 E3.51818
G1 X114.111 Y111.809 E3.57461
G1 X113.184 Y112.492 E3.63205
G1 X112.308 Y113.229 E3.68917
G1 X111.466 Y114.024 E3.74694
G1 X110.678 Y114.862 E3.80433
G1 X109.946 Y115.746 E3.86159
G1 X109.263 Y116.677 E3.9192
G1 X108.639 Y117.642 E3.97653
G1 X108.076 Y118.647 E4.034
G1 X107.576 Y119.675 E4.09103
G1 X107.138 Y120.733 E4.14816
G1 X106.77 Y121.799 E4.20442
G1 X106.455 Y122.928 E4.2629
G1 X106.211 Y124.069 E4.32111
G1 X106.029 Y125.252 E4.38083
G1 X105.936 Y126.352 E4.4359
G1 X105.897 Y127.502 E4.49331
G1 X105.932 Y128.643 E4.55026
G1 X106.033 Y129.748 E4.60562
G1 X106.207 Y130.932 E4.66532
G1 X106.451 Y132.056 E4.72271
G1 X106.766 Y133.197 E4.78176
G1 X107.134 Y134.258 E4.83779
G1 X107.576 Y135.322 E4.89527
G1 X108.073 Y136.353 E4.95237
G1 X108.638 Y137.353 E5.00967
G1 X109.263 Y138.324 E5.06728
G1 X109.942 Y139.25 E5.12457
G1 X110.678 Y140.138 E5.18211
G1 X111.466 Y140.976 E5.2395
G1 X112.299 Y141.767 E5.29681
G1 X113.187 Y142.507 E5.35448
G1 X114.111 Y143.19 E5.41181
G1 X115.057 Y143.807 E5.46815
G1 X116.077 Y144.389 E5.52674
G1 X117.107 Y144.892 E5.58393
G1 X118.175 Y145.335 E5.64161
G1 X119.229 Y145.703 E5.69731
G1 X120.367 Y146.025 E5.75631
G1 X121.496 Y146.274 E5.81399
G1 X122.679 Y146.46 E5.87374
G1 X123.774 Y146.56 E5.9286
G1 X124.926 Y146.599 E5.9861
G0 F3600 X124.93 Y146.299
G0 X136.328 Y138.828
G0 X135.939 Y138.41
G1 F1800 X135.721 Y138.559 E5.99928
G1 X135.5 Y138.6 E6.01049
G1 X114.5 Y138.6 E7.05818
G1 X114.278 Y138.558 E7.06946
G1 X114.062 Y138.412 E7.08246
G1 X113.936 Y138.205 E7.09455
G1 X113.9 Y138 E7.10494
G1 X113.9 Y117 E8.15263
G1 X113.936 Y116.795 E8.16302
G1 X114.087 Y116.563 E8.17683
G1 X114.28 Y116.441 E8.18822
G1 X114.5 Y116.4 E8.19938
G1 X135.5 Y116.4 E9.24708
G1 X135.72 Y116.441 E9.25824
G1 X135.912 Y116.563 E9.26959
G1 X136.064 Y116.793 E9.28335
G1 X136.1 Y117 E9.29383
G1 X136.1 Y138 E10.34152
G1 X136.065 Y138.205 E10.3519
G1 X135.939 Y138.41 E10.3639
G0 F3600 X135.555 Y138.2
;TYPE:WALL-OUTER
G1 F1800 X114.447 Y138.2 E11.41698
G1 X114.3 Y138.049 E11.4275
G1 X114.3 Y116.949 E12.48018
G1 X114.446 Y116.8 E12.49059
G1 X135.554 Y116.8 E13.54367
G1 X135.7 Y116.949 E13.55408
G1 X135.7 Y138.052 E14.60691
G1 X135.555 Y138.2 E14.61725
G0 F3600 X135.355 Y138.2
G0 X135.355 Y138.9
G0 X124.93 Y146.299
G0 X124.925 Y146.999
G1 F1800 X126.096 Y146.968 E14.67569
G1 X127.264 Y146.865 E14.73419
G1 X128.381 Y146.698 E14.79053
G1 X129.585 Y146.453 E14.85183
G1 X130.745 Y146.136 E14.91183
G1 X131.825 Y145.764 E14.96882
G1 X133.057 Y145.253 E15.03536
G1 X134.11 Y144.739 E15.09382
G1 X135.147 Y144.145 E15.15344
G1 X136.113 Y143.519 E15.21087
G1 X137.06 Y142.818 E15.26965
G1 X137.959 Y142.066 E15.32812
G1 X138.814 Y141.258 E15.38681
G1 X139.617 Y140.399 E15.44548
G1 X140.37 Y139.496 E15.50414
G1 X141.063 Y138.546 E15.5628
G1 X141.7 Y137.56 E15.62137
G1 X142.278 Y136.539 E15.6799
G1 X142.785 Y135.486 E15.73821
G1 X143.236 Y134.397 E15.79702
G1 X143.608 Y133.316 E15.85405
G1 X143.933 Y132.155 E15.9142
G1 X144.183 Y131.003 E15.97301
G1 X144.365 Y129.792 E16.03411
G1 X144.464 Y128.668 E16.0904
G1 X144.499 Y127.496 E16.1489
G1 X144.464 Y126.321 E16.20754
G1 X144.361 Y125.204 E16.26351
G1 X144.183 Y123.988 E16.32482
G1 X143.933 Y122.84 E16.38344
G1 X143.612 Y121.68 E16.44349
G1 X143.236 Y120.599 E16.50059
G1 X142.789 Y119.51 E16.55932
G1 X142.274 Y118.453 E16.61798
G1 X141.7 Y117.436 E16.67624
G1 X141.063 Y116.442 E16.73514
G1 X140.37 Y115.5 E16.79348
G1 X139.614 Y114.593 E16.85239
G1 X138.81 Y113.734 E16.91109
G1 X137.959 Y112.93 E16.9695
G1 X137.056 Y112.174 E17.02825
G1 X136.114 Y111.477 E17.08671
G1 X135.147 Y110.851 E17.14418
G1 X134.102 Y110.253 E17.20425
G1 X133.053 Y109.743 E17.26244
G1 X131.968 Y109.287 E17.32116
G1 X130.887 Y108.911 E17.37826
G1 X129.727 Y108.583 E17.4384
G1 X128.574 Y108.329 E17.49731
G1 X127.367 Y108.139 E17.55827
G1 X126.247 Y108.04 E17.61436
G1 X125.07 Y108.001 E17.67311
G1 X123.904 Y108.028 E17.7313
G1 X122.732 Y108.131 E17.79
G1 X121.62 Y108.297 E17.84609
G1 X120.411 Y108.547 E17.90768
G1 X119.251 Y108.864 E17.96768
G1 X118.175 Y109.232 E18.02441
G1 X116.943 Y109.743 E18.09096
G1 X115.89 Y110.258 E18.14944
G1 X114.849 Y110.847 E18.20911
G1 X113.883 Y111.481 E18.26676
G1 X112.936 Y112.178 E18.32542
G1 X112.042 Y112.93 E18.3837
G1 X111.182 Y113.742 E18.44271
G1 X110.378 Y114.597 E18.50126
G1 X109.63 Y115.5 E18.55976
G1 X108.933 Y116.45 E18.61855
G1 X108.296 Y117.436 E18.67711
G1 X107.722 Y118.461 E18.73572
G1 X107.211 Y119.511 E18.79398
G1 X106.764 Y120.591 E18.85229
G1 X106.388 Y121.68 E18.90977
G1 X106.067 Y122.832 E18.96944
G1 X105.817 Y123.997 E19.02888
G1 X105.631 Y125.204 E19.08981
G1 X105.536 Y126.328 E19.14609
G1 X105.497 Y127.501 E19.20464
G1 X105.532 Y128.667 E19.26284
G1 X105.635 Y129.796 E19.3194
G1 X105.813 Y131.004 E19.38032
G1 X106.063 Y132.152 E19.43893
G1 X106.384 Y133.316 E19.49917
G1 X106.76 Y134.4 E19.55641
G1 X107.211 Y135.486 E19.61508
G1 X107.718 Y136.539 E19.67339
G1 X108.296 Y137.56 E19.73192
G1 X108.933 Y138.55 E19.79065
G1 X109.626 Y139.496 E19.84916
G1 X110.378 Y140.403 E19.90794
G1 X111.182 Y141.258 E19.96649
G1 X112.033 Y142.066 E20.02504
G1 X112.94 Y142.822 E20.08395
G1 X113.883 Y143.519 E20.14245
G1 X114.849 Y144.149 E20.19999
G1 X115.89 Y144.743 E20.25978
G1 X116.943 Y145.257 E20.31824
G1 X118.032 Y145.709 E20.37706
G1 X119.109 Y146.085 E20.43398
G1 X120.269 Y146.413 E20.49412
G1 X121.422 Y146.667 E20.55302
G1 X122.629 Y146.857 E20.61398
G1 X123.749 Y146.96 E20.67009
G1 X124.925 Y146.999 E20.7288
G0 F3600 X125.125 Y146.994
G0 X125.108 Y146.294
G0 X136.328 Y138.828
G0 X136.206 Y138.678
;TYPE:SKIN
G1 F900 X136.421 Y138.332 E20.74912
G1 X136.477 Y138.032 E20.76435
G1 X136.478 Y116.969 E21.81518
G1 X136.42 Y116.662 E21.83077
G1 X136.178 Y116.294 E21.85274
G1 X135.857 Y116.085 E21.87185
G1 X135.492 Y116.02 E21.89035
G1 X114.468 Y116.023 E22.93924
G1 X114.139 Y116.085 E22.95594
G1 X113.826 Y116.286 E22.9745
G1 X113.576 Y116.663 E22.99707
G1 X113.522 Y116.972 E23.01272
G1 X113.522 Y138.029 E24.06326
G1 X113.575 Y138.332 E24.0786
G1 X113.786 Y138.67 E24.09848
G1 X114.137 Y138.91 E24.1197
G1 X114.461 Y138.977 E24.1362
G1 X135.492 Y138.981 E25.18544
G1 X135.862 Y138.911 E25.20423
G1 X136.206 Y138.678 E25.22496
G0 F3600 X136.4 Y138.678
G0 X124.925 Y146.215
G1 F900 X123.8 Y146.18 E25.28111
G1 X122.773 Y146.089 E25.33255
G1 X121.57 Y145.899 E25.39331
G1 X120.457 Y145.653 E25.45018
G1 X119.341 Y145.337 E25.50805
G1 X118.28 Y144.965 E25.56414
G1 X117.259 Y144.541 E25.6193
G1 X116.254 Y144.051 E25.67508
G1 X115.237 Y143.465 E25.73364
G1 X114.327 Y142.875 E25.78774
G1 X113.424 Y142.206 E25.84381
G1 X112.55 Y141.478 E25.90056
G1 X111.734 Y140.702 E25.95674
G1 X110.958 Y139.883 E26.01303
G1 X110.238 Y139.013 E26.06937
G1 X109.573 Y138.102 E26.12564
G1 X108.96 Y137.152 E26.18205
G1 X108.41 Y136.179 E26.23781
G1 X107.923 Y135.162 E26.29406
G1 X107.487 Y134.12 E26.35042
G1 X107.135 Y133.112 E26.40368
G1 X106.819 Y131.964 E26.46309
G1 X106.581 Y130.864 E26.51924
G1 X106.411 Y129.7 E26.57793
G1 X106.308 Y128.615 E26.6323
G1 X106.277 Y127.505 E26.6877
G1 X106.312 Y126.376 E26.74405
G1 X106.395 Y125.344 E26.79571
G1 X106.581 Y124.137 E26.85663
G1 X106.823 Y123.021 E26.91361
G1 X107.143 Y121.88 E26.97273
G1 X107.492 Y120.867 E27.02618
G1 X107.923 Y119.827 E27.08235
G1 X108.41 Y118.825 E27.13793
G1 X108.964 Y117.84 E27.19431
G1 X109.573 Y116.894 E27.25044
G1 X110.242 Y115.984 E27.30679
G1 X110.996 Y115.076 E27.36567
G1 X111.73 Y114.294 E27.41918
G1 X112.562 Y113.51 E27.47621
G1 X113.416 Y112.79 E27.53194
G1 X114.327 Y112.121 E27.58833
G1 X115.237 Y111.523 E27.64265
G1 X116.25 Y110.945 E27.70084
G1 X117.258 Y110.455 E27.75676
G1 X118.448 Y109.963 E27.821
G1 X119.448 Y109.616 E27.87381
G1 X120.587 Y109.307 E27.93269
G1 X121.807 Y109.057 E27.99482
G1 X122.828 Y108.907 E28.0463
G1 X123.948 Y108.808 E28.1024
G1 X125.063 Y108.781 E28.15804
G1 X126.196 Y108.816 E28.21459
G1 X127.219 Y108.903 E28.26582
G1 X128.426 Y109.093 E28.32678
G1 X129.534 Y109.338 E28.38339
G1 X130.68 Y109.668 E28.44289
G1 X131.629 Y109.988 E28.49285
G1 X132.725 Y110.451 E28.55221
G1 X133.734 Y110.941 E28.60817
G1 X134.739 Y111.515 E28.66591
G1 X135.666 Y112.117 E28.72106
G1 X136.572 Y112.786 E28.77725
G1 X137.435 Y113.51 E28.83345
G1 X138.254 Y114.282 E28.8896
G1 X139.025 Y115.105 E28.94586
G1 X139.754 Y115.984 E29.00283
G1 X140.415 Y116.882 E29.05846
G1 X141.032 Y117.84 E29.11531
G1 X141.582 Y118.813 E29.17107
G1 X142.073 Y119.826 E29.22724
G1 X142.505 Y120.872 E29.2837
G1 X142.857 Y121.88 E29.33696
G1 X143.173 Y123.024 E29.39618
G1 X143.411 Y124.124 E29.45232
G1 X143.585 Y125.292 E29.51124
G1 X143.684 Y126.364 E29.56495
G1 X143.715 Y127.492 E29.62125
G1 X143.684 Y128.616 E29.67734
G1 X143.597 Y129.648 E29.72901
G1 X143.415 Y130.855 E29.78991
G1 X143.173 Y131.967 E29.84669
G1 X142.849 Y133.112 E29.90606
G1 X142.504 Y134.117 E29.95907
G1 X142.069 Y135.162 E30.01554
G1 X141.574 Y136.199 E30.07287
G1 X141.033 Y137.152 E30.12754
G1 X140.419 Y138.098 E30.18381
G1 X139.754 Y139.013 E30.24024
G1 X139.034 Y139.879 E30.29642
G1 X138.262 Y140.702 E30.35272
G1 X137.439 Y141.478 E30.40915
G1 X136.576 Y142.203 E30.46539
G1 X135.669 Y142.875 E30.5217
G1 X134.743 Y143.477 E30.57681
G1 X133.746 Y144.047 E30.6341
G1 X132.737 Y144.537 E30.69006
G1 X131.548 Y145.033 E30.75434
G1 X130.544 Y145.38 E30.80733
G1 X129.405 Y145.693 E30.86627
G1 X128.193 Y145.934 E30.92792
G1 X127.168 Y146.089 E30.97964
G1 X126.044 Y146.188 E31.03593
G1 X124.925 Y146.215 E31.09177
G0 F3600 X113.672 Y138.828
G0 X113.36 Y138.25
G1 F900 X107.009 Y131.899 E31.53987
G0 F3600 X106.853 Y131.178
G1 F900 X113.325 Y137.65 E31.9965
G0 F3600 X113.325 Y137.084
G1 F900 X106.728 Y130.487 E32.46196
G0 F3600 X106.631 Y129.824
G1 F900 X113.325 Y136.518 E32.93426
G0 F3600 X113.325 Y135.953
G1 F900 X106.563 Y129.191 E33.41135
G0 F3600 X106.507 Y128.568
G1 F900 X113.325 Y135.387 E33.89243
G0 F3600 X113.324 Y134.821
G1 F900 X106.49 Y127.986 E34.37464
G0 F3600 X106.48 Y127.41
G1 F900 X113.324 Y134.255 E34.85756
G0 F3600 X113.324 Y133.689
G1 F900 X106.497 Y126.861 E35.33928
G0 F3600 X106.517 Y126.316
G1 F900 X113.324 Y133.123 E35.81955
G0 F3600 X113.324 Y132.558
G1 F900 X106.559 Y125.792 E36.29689
G0 F3600 X106.608 Y125.275
G1 F900 X113.324 Y131.991 E36.77074
G0 F3600 X113.324 Y131.426
G1 F900 X106.683 Y124.785 E37.2393
G0 F3600 X106.759 Y124.295
G1 F900 X113.324 Y130.86 E37.7025
G0 F3600 X113.324 Y130.294
G1 F900 X106.853 Y123.824 E38.15902
G0 F3600 X106.954 Y123.359
G1 F900 X113.324 Y129.729 E38.60846
G0 F3600 X113.324 Y129.163
G1 F900 X107.063 Y122.902 E39.05021
G0 F3600 X107.187 Y122.461
G1 F900 X113.323 Y128.597 E39.48314
G0 F3600 X113.323 Y128.031
G1 F900 X107.311 Y122.019 E39.90732
G0 F3600 X107.453 Y121.595
G1 F900 X113.323 Y127.465 E40.32148
G0 F3600 X113.323 Y126.9
G1 F900 X107.598 Y121.174 E40.72544
G0 F3600 X107.751 Y120.762
G1 F900 X113.323 Y126.334 E41.11858
G0 F3600 X113.322 Y125.767
G1 F900 X107.917 Y120.362 E41.49993
G0 F3600 X108.082 Y119.961
G1 F900 X113.322 Y125.202 E41.86967
G0 F3600 X113.322 Y124.636
G1 F900 X108.265 Y119.579 E42.22647
G0 F3600 X108.45 Y119.198
G1 F900 X113.322 Y124.07 E42.57022
G0 F3600 X113.322 Y123.505
G1 F900 X108.64 Y118.822 E42.90059
G0 F3600 X108.844 Y118.46
G1 F900 X113.322 Y122.938 E43.21654
G0 F3600 X113.322 Y122.373
G1 F900 X109.047 Y118.098 E43.51817
G0 F3600 X109.261 Y117.746
G1 F900 X113.322 Y121.807 E43.80469
G0 F3600 X113.322 Y121.241
G1 F900 X109.483 Y117.402 E44.07555
G0 F3600 X109.704 Y117.058
G1 F900 X113.322 Y120.676 E44.33082
G0 F3600 X113.322 Y120.11
G1 F900 X109.942 Y116.73 E44.5693
G0 F3600 X110.181 Y116.404
G1 F900 X113.321 Y119.543 E44.79081
G0 F3600 X113.321 Y118.978
G1 F900 X110.423 Y116.079 E44.99531
G0 F3600 X110.678 Y115.77
G1 F900 X113.321 Y118.412 E45.18176
G0 F3600 X113.321 Y117.846
G1 F900 X110.934 Y115.46 E45.35014
G0 F3600 X111.196 Y115.156
G1 F900 X113.321 Y117.281 E45.50007
G0 F3600 X113.362 Y116.756
G1 F900 X111.47 Y114.864 E45.63356
G0 F3600 X111.743 Y114.572
G1 F900 X113.539 Y116.368 E45.76028
G0 F3600 X113.804 Y116.067
G1 F900 X112.027 Y114.29 E45.88565
G0 F3600 X112.318 Y114.015
G1 F900 X114.179 Y115.876 E46.01696
G0 F3600 X114.694 Y115.826
G1 F900 X112.609 Y113.74 E46.1641
G0 F3600 X112.912 Y113.477
G1 F900 X115.26 Y115.826 E46.3298
G0 F3600 X115.826 Y115.826
G1 F900 X113.218 Y113.218 E46.51381
G0 F3600 X113.525 Y112.96
G1 F900 X116.391 Y115.826 E46.71602
G0 F3600 X116.956 Y115.825
G1 F900 X113.851 Y112.719 E46.93513
G0 F3600 X114.177 Y112.479
G1 F900 X117.522 Y115.825 E47.17117
G0 F3600 X118.088 Y115.825
G1 F900 X114.505 Y112.243 E47.42394
G0 F3600 X114.848 Y112.019
G1 F900 X118.653 Y115.825 E47.69244
G0 F3600 X119.218 Y115.824
G1 F900 X115.189 Y111.795 E47.9767
G0 F3600 X115.541 Y111.581
G1 F900 X119.784 Y115.824 E48.27607
G0 F3600 X120.35 Y115.824
