;FLAVOR:Marlin
;TIME:9997
;Filament used: 10.8981m
;Layer height: 0.2
;MINX:6.4
;MINY:15.216
;MINZ:0.3
;MAXX:243.7
;MAXY:114.716
;MAXZ:1.9
;TARGET_MACHINE.NAME:Anycubic Vyper
;Generated with Cura_SteamEngine 5.7.0
M140 S60
M105
M190 S60
M104 S200
M105
M109 S200
M82 ;absolute extrusion mode
G21 ;metric values
G90 ;absolute positioning
M82 ;set extruder to absolute mode
M107 ;start with the fan off
G28 X0 Y0 ;move X/Y to min endstops
M300 S1318 P266
G28 Z0 ;move Z to min endstops
G0 Z0.2
G92 E0 ;zero the extruded length
G1 X40 E25 F400 ; Extrude 25mm of filament in a 4cm line. Reduce speed (F) if you have a nozzle smaller than 0.4mm!
G92 E0 ;zero the extruded length again
G1 E-1 F500 ; Retract a little
G1 X80 F4000 ; Quickly wipe away from the filament line
M117 ; Printing…
G5
G92 E0
G92 E0
G1 F1500 E-6.5
;LAYER_COUNT:9
;LAYER:0
M107
;MESH:Top cover.stl
G0 F3600 X37.597 Y66.671 Z0.3
;TYPE:WALL-INNER
G1 F1500 E0
G1 F1800 X34.872 Y66.676 E0.13595
G1 X32.132 Y66.334 E0.27371
G1 X29.455 Y65.643 E0.41164
G1 X26.956 Y64.652 E0.54577
G1 X24.574 Y63.342 E0.68139
G1 X22.368 Y61.74 E0.81741
G1 X20.373 Y59.869 E0.95386
G1 X18.646 Y57.778 E1.08916
G1 X17.174 Y55.468 E1.22582
G1 X16.023 Y53.012 E1.36114
G1 X15.176 Y50.407 E1.4978
G1 X14.667 Y47.733 E1.6336
G1 X14.496 Y45.016 E1.76942
G1 X14.668 Y42.287 E1.90584
G1 X15.176 Y39.625 E2.04104
G1 X16.023 Y37.02 E2.17771
G1 X17.175 Y34.562 E2.31314
G1 X18.644 Y32.251 E2.44975
G1 X20.409 Y30.13 E2.58742
G1 X22.365 Y28.291 E2.72136
G1 X24.574 Y26.69 E2.85747
G1 X26.949 Y25.381 E2.99276
G1 X29.499 Y24.372 E3.12958
G1 X32.154 Y23.696 E3.26626
G1 X34.83 Y23.356 E3.40084
G1 X37.566 Y23.356 E3.53734
G1 X40.268 Y23.699 E3.67323
G1 X42.898 Y24.372 E3.80867
G1 X45.447 Y25.381 E3.94544
G1 X47.822 Y26.69 E4.08073
G1 X50.031 Y28.291 E4.21684
G1 X52.022 Y30.162 E4.35315
G1 X53.752 Y32.251 E4.48847
G1 X55.218 Y34.562 E4.62501
G1 X56.373 Y37.018 E4.76041
G1 X57.223 Y39.621 E4.89702
G1 X57.732 Y42.287 E5.03243
G1 X57.904 Y45.016 E5.16885
G1 X57.731 Y47.748 E5.30543
G1 X57.224 Y50.407 E5.44047
G1 X56.378 Y53.01 E5.57703
G1 X55.218 Y55.47 E5.71272
G1 X53.752 Y57.782 E5.8493
G1 X52.022 Y59.866 E5.98442
G1 X50.029 Y61.739 E6.12087
G1 X47.822 Y63.342 E6.25696
G1 X45.438 Y64.655 E6.39274
G1 X42.894 Y65.661 E6.52923
G1 X40.223 Y66.339 E6.66671
G1 X37.597 Y66.671 E6.79876
G0 F3600 X37.547 Y66.276
G1 F1800 X34.885 Y66.276 E6.93157
G1 X32.168 Y65.93 E7.06822
G1 X29.59 Y65.266 E7.20103
G1 X27.126 Y64.29 E7.33326
G1 X24.787 Y63.002 E7.46647
G1 X22.623 Y61.432 E7.59985
G1 X20.666 Y59.595 E7.73376
G1 X18.966 Y57.536 E7.86698
G1 X17.526 Y55.276 E8.00067
G1 X16.397 Y52.868 E8.13336
G1 X15.564 Y50.305 E8.26781
G1 X15.075 Y47.737 E8.39823
G1 X14.9 Y45.016 E8.53426
G1 X15.066 Y42.332 E8.66842
G1 X15.564 Y39.727 E8.80074
G1 X16.397 Y37.164 E8.93519
G1 X17.524 Y34.76 E9.06765
G1 X18.971 Y32.484 E9.20221
G1 X20.644 Y30.463 E9.3331
G1 X22.621 Y28.6 E9.46863
G1 X24.787 Y27.03 E9.60209
G1 X27.124 Y25.742 E9.73522
G1 X29.621 Y24.754 E9.86919
G1 X32.223 Y24.09 E10.00317
G1 X34.849 Y23.756 E10.13523
G1 X37.547 Y23.756 E10.26984
G1 X40.184 Y24.09 E10.40245
G1 X42.775 Y24.754 E10.53589
G1 X45.272 Y25.742 E10.66987
G1 X47.609 Y27.03 E10.80299
G1 X49.775 Y28.599 E10.93643
G1 X51.733 Y30.44 E11.07051
G1 X53.426 Y32.488 E11.20308
G1 X54.868 Y34.755 E11.33712
G1 X56.002 Y37.166 E11.47005
G1 X56.833 Y39.722 E11.60414
G1 X57.333 Y42.338 E11.73701
G1 X57.503 Y45.016 E11.87089
G1 X57.333 Y47.69 E12.00456
G1 X56.833 Y50.31 E12.13764
G1 X56.002 Y52.866 E12.27172
G1 X54.868 Y55.276 E12.40461
G1 X53.428 Y57.543 E12.53859
G1 X51.73 Y59.593 E12.6714
G1 X49.774 Y61.431 E12.80531
G1 X47.609 Y63.002 E12.93876
G1 X45.272 Y64.29 E13.07189
G1 X42.774 Y65.278 E13.20591
G1 X40.16 Y65.944 E13.34049
G1 X37.547 Y66.276 E13.4719
G0 F3600 X37.517 Y65.875
G1 F1800 X34.844 Y65.872 E13.60525
G1 X32.247 Y65.538 E13.73589
G1 X29.779 Y64.906 E13.86299
G1 X27.296 Y63.928 E13.99613
G1 X24.971 Y62.642 E14.12868
G1 X22.849 Y61.098 E14.25961
G1 X20.933 Y59.291 E14.39101
G1 X19.273 Y57.275 E14.52129
G1 X17.897 Y55.115 E14.64906
G1 X16.757 Y52.682 E14.78311
G1 X15.946 Y50.173 E14.91466
G1 X15.469 Y47.668 E15.04188
G1 X15.3 Y45.016 E15.17446
G1 X15.47 Y42.351 E15.30769
G1 X15.965 Y39.786 E15.43802
G1 X16.784 Y37.281 E15.5695
G1 X17.897 Y34.918 E15.69981
G1 X19.317 Y32.693 E15.8315
G1 X20.945 Y30.727 E15.95885
G1 X22.907 Y28.886 E16.09308
G1 X25.034 Y27.35 E16.22397
G1 X27.262 Y26.122 E16.35089
G1 X29.779 Y25.126 E16.48594
G1 X32.292 Y24.484 E16.61534
G1 X34.844 Y24.16 E16.74368
G1 X37.552 Y24.16 E16.87878
G1 X40.149 Y24.494 E17.00942
G1 X42.617 Y25.126 E17.13652
G1 X45.134 Y26.122 E17.27157
G1 X47.425 Y27.39 E17.4022
G1 X49.547 Y28.934 E17.53313
G1 X51.463 Y30.741 E17.66452
G1 X53.102 Y32.723 E17.79284
G1 X54.518 Y34.949 E17.92446
G1 X55.63 Y37.314 E18.05484
G1 X56.446 Y39.822 E18.18642
G1 X56.936 Y42.388 E18.31675
G1 X57.1 Y45.016 E18.44812
G1 X56.936 Y47.64 E18.57929
G1 X56.446 Y50.21 E18.70981
G1 X55.63 Y52.718 E18.84139
G1 X54.518 Y55.083 E18.97178
G1 X53.105 Y57.307 E19.10323
G1 X51.438 Y59.319 E19.23359
G1 X49.519 Y61.123 E19.36499
G1 X47.362 Y62.682 E19.49777
G1 X45.134 Y63.91 E19.62469
G1 X42.617 Y64.906 E19.75974
G1 X40.076 Y65.552 E19.89054
G1 X37.517 Y65.875 E20.01922
G0 F3600 X37.554 Y66.174
G0 X87.566 Y66.676
G1 F1800 X84.831 Y66.676 E20.15567
G1 X82.128 Y66.333 E20.29161
G1 X79.501 Y65.661 E20.42689
G1 X76.951 Y64.653 E20.56369
G1 X74.573 Y63.342 E20.69916
G1 X72.367 Y61.739 E20.83521
G1 X70.372 Y59.868 E20.97166
G1 X68.65 Y57.779 E21.10673
G1 X67.178 Y55.47 E21.24334
G1 X66.023 Y53.014 E21.37874
G1 X65.176 Y50.409 E21.51541
G1 X64.668 Y47.741 E21.6509
G1 X64.496 Y45.016 E21.78713
G1 X64.668 Y42.287 E21.92355
G1 X65.176 Y39.626 E22.0587
G1 X66.018 Y37.023 E22.19519
G1 X67.178 Y34.562 E22.33093
G1 X68.646 Y32.254 E22.46739
G1 X70.373 Y30.163 E22.60269
G1 X72.365 Y28.291 E22.73907
G1 X74.574 Y26.69 E22.87518
G1 X76.949 Y25.381 E23.01047
G1 X79.499 Y24.372 E23.14729
G1 X82.154 Y23.696 E23.28398
G1 X84.83 Y23.356 E23.41856
G1 X87.566 Y23.356 E23.55505
G1 X90.268 Y23.699 E23.69094
G1 X92.898 Y24.372 E23.82638
G1 X95.447 Y25.381 E23.96315
G1 X97.822 Y26.69 E24.09844
G1 X100.031 Y28.291 E24.23455
G1 X102.022 Y30.162 E24.37086
G1 X103.752 Y32.251 E24.50618
G1 X105.218 Y34.562 E24.64272
G1 X106.373 Y37.018 E24.77812
G1 X107.223 Y39.621 E24.91473
G1 X107.732 Y42.287 E25.05014
G1 X107.904 Y45.016 E25.18657
G1 X107.731 Y47.748 E25.32314
G1 X107.224 Y50.407 E25.45819
G1 X106.378 Y53.01 E25.59474
G1 X105.218 Y55.47 E25.73043
G1 X103.752 Y57.782 E25.86701
G1 X102.022 Y59.866 E26.00213
G1 X100.029 Y61.739 E26.13858
G1 X97.822 Y63.342 E26.27467
G1 X95.438 Y64.655 E26.41045
G1 X92.894 Y65.661 E26.54694
G1 X90.242 Y66.335 E26.68345
G1 X87.566 Y66.676 E26.81804
G0 F3600 X87.547 Y66.276
G1 F1800 X84.849 Y66.276 E26.95264
G1 X82.212 Y65.942 E27.08525
G1 X79.621 Y65.278 E27.2187
G1 X77.124 Y64.29 E27.35267
G1 X74.787 Y63.002 E27.4858
G1 X72.622 Y61.431 E27.61925
G1 X70.666 Y59.592 E27.75319
G1 X68.972 Y57.543 E27.88583
G1 X67.528 Y55.276 E28.01993
G1 X66.394 Y52.866 E28.15281
G1 X65.567 Y50.31 E28.28684
G1 X65.067 Y47.69 E28.41991
G1 X64.897 Y45.016 E28.55358
G1 X65.067 Y42.338 E28.68746
G1 X65.567 Y39.722 E28.82033
G1 X66.394 Y37.166 E28.95436
G1 X67.528 Y34.755 E29.08729
G1 X68.97 Y32.488 E29.22133
G1 X70.663 Y30.44 E29.3539
G1 X72.621 Y28.599 E29.48798
G1 X74.787 Y27.03 E29.62142
G1 X77.124 Y25.742 E29.75454
G1 X79.621 Y24.754 E29.88852
G1 X82.223 Y24.09 E30.02249
G1 X84.849 Y23.756 E30.15456
G1 X87.547 Y23.756 E30.28916
G1 X90.184 Y24.09 E30.42177
G1 X92.775 Y24.754 E30.55522
G1 X95.272 Y25.742 E30.68919
G1 X97.609 Y27.03 E30.82232
G1 X99.775 Y28.599 E30.95575
G1 X101.733 Y30.44 E31.08984
G1 X103.426 Y32.488 E31.2224
G1 X104.868 Y34.755 E31.35645
G1 X106.002 Y37.166 E31.48937
G1 X106.833 Y39.722 E31.62346
G1 X107.333 Y42.338 E31.75634
G1 X107.503 Y45.016 E31.89021
G1 X107.333 Y47.69 E32.02389
G1 X106.833 Y50.31 E32.15696
G1 X106.002 Y52.866 E32.29105
G1 X104.868 Y55.276 E32.42393
G1 X103.428 Y57.543 E32.55792
G1 X101.73 Y59.593 E32.69072
G1 X99.774 Y61.431 E32.82463
G1 X97.609 Y63.002 E32.95808
G1 X95.272 Y64.29 E33.09121
G1 X92.775 Y65.278 E33.22518
G1 X90.184 Y65.942 E33.35863
G1 X87.547 Y66.276 E33.49124
G0 F3600 X87.552 Y65.872
G1 F1800 X84.844 Y65.872 E33.62634
G1 X82.247 Y65.538 E33.75697
G1 X79.779 Y64.906 E33.88408
G1 X77.262 Y63.91 E34.01912
G1 X74.971 Y62.642 E34.14976
G1 X72.877 Y61.123 E34.27882
G1 X70.958 Y59.319 E34.41022
G1 X69.295 Y57.307 E34.54045
G1 X67.878 Y55.083 E34.67202
G1 X66.766 Y52.718 E34.8024
G1 X65.954 Y50.21 E34.93392
G1 X65.464 Y47.64 E35.06445
G1 X65.3 Y45.016 E35.19561
G1 X65.464 Y42.388 E35.32698
G1 X65.954 Y39.822 E35.45731
G1 X66.766 Y37.314 E35.58883
G1 X67.878 Y34.949 E35.71921
G1 X69.294 Y32.723 E35.85083
G1 X70.985 Y30.686 E35.98291
G1 X72.907 Y28.886 E36.11429
G1 X75.034 Y27.35 E36.24518
G1 X77.262 Y26.122 E36.3721
G1 X79.779 Y25.126 E36.50715
G1 X82.292 Y24.484 E36.63655
G1 X84.844 Y24.16 E36.76489
G1 X87.552 Y24.16 E36.89999
G1 X90.149 Y24.494 E37.03063
G1 X92.617 Y25.126 E37.15773
G1 X95.134 Y26.122 E37.29278
G1 X97.425 Y27.39 E37.42341
G1 X99.547 Y28.934 E37.55434
G1 X101.463 Y30.741 E37.68573
G1 X103.102 Y32.723 E37.81405
G1 X104.518 Y34.949 E37.94567
G1 X105.63 Y37.314 E38.07605
G1 X106.446 Y39.822 E38.20763
G1 X106.936 Y42.388 E38.33796
G1 X107.1 Y45.016 E38.46933
G1 X106.936 Y47.64 E38.6005
G1 X106.446 Y50.21 E38.73102
G1 X105.63 Y52.718 E38.8626
G1 X104.518 Y55.083 E38.99299
G1 X103.105 Y57.307 E39.12444
G1 X101.438 Y59.319 E39.2548
G1 X99.519 Y61.123 E39.3862
G1 X97.362 Y62.682 E39.51898
G1 X95.134 Y63.91 E39.6459
G1 X92.617 Y64.906 E39.78095
G1 X90.076 Y65.552 E39.91175
G1 X87.552 Y65.872 E40.03868
G0 F3600 X87.589 Y66.17
G0 X137.566 Y66.676
G1 F1800 X134.831 Y66.676 E40.17513
G1 X132.128 Y66.333 E40.31107
G1 X129.501 Y65.661 E40.44635
G1 X126.951 Y64.653 E40.58315
G1 X124.573 Y63.342 E40.71862
G1 X122.367 Y61.739 E40.85467
G1 X120.372 Y59.868 E40.99112
G1 X118.65 Y57.779 E41.12619
G1 X117.178 Y55.47 E41.2628
G1 X116.023 Y53.014 E41.3982
G1 X115.176 Y50.409 E41.53486
G1 X114.668 Y47.741 E41.67036
G1 X114.496 Y45.016 E41.80658
G1 X114.668 Y42.287 E41.943
G1 X115.176 Y39.626 E42.07816
G1 X116.018 Y37.023 E42.21465
G1 X117.178 Y34.562 E42.35038
G1 X118.646 Y32.254 E42.48685
G1 X120.373 Y30.163 E42.62215
G1 X122.365 Y28.291 E42.75853
G1 X124.574 Y26.69 E42.89464
G1 X126.949 Y25.381 E43.02993
G1 X129.499 Y24.372 E43.16675
G1 X132.154 Y23.696 E43.30343
G1 X134.83 Y23.356 E43.43801
G1 X137.566 Y23.356 E43.57451
G1 X140.268 Y23.699 E43.7104
G1 X142.898 Y24.372 E43.84584
G1 X145.447 Y25.381 E43.98261
G1 X147.822 Y26.69 E44.1179
G1 X150.031 Y28.291 E44.25401
G1 X152.022 Y30.162 E44.39032
G1 X153.752 Y32.251 E44.52564
G1 X155.218 Y34.562 E44.66218
G1 X156.374 Y37.019 E44.79765
G1 X157.22 Y39.622 E44.9342
G1 X157.732 Y42.286 E45.06954
G1 X157.904 Y45.016 E45.20601
G1 X157.731 Y47.748 E45.34258
G1 X157.224 Y50.408 E45.47768
G1 X156.374 Y53.013 E45.61439
G1 X155.218 Y55.47 E45.74986
G1 X153.752 Y57.782 E45.88644
G1 X152.022 Y59.866 E46.02156
G1 X150.032 Y61.74 E46.15794
G1 X147.822 Y63.342 E46.29412
G1 X145.438 Y64.655 E46.4299
G1 X142.894 Y65.661 E46.56638
G1 X140.242 Y66.335 E46.7029
G1 X137.566 Y66.676 E46.83748
G0 F3600 X137.547 Y66.276
G1 F1800 X134.849 Y66.276 E46.97209
G1 X132.212 Y65.942 E47.1047
G1 X129.621 Y65.278 E47.23814
G1 X127.124 Y64.29 E47.37212
G1 X124.787 Y63.002 E47.50524
G1 X122.622 Y61.431 E47.6387
G1 X120.666 Y59.592 E47.77264
G1 X118.972 Y57.543 E47.90528
G1 X117.528 Y55.276 E48.03937
G1 X116.394 Y52.866 E48.17225
G1 X115.567 Y50.31 E48.30628
G1 X115.067 Y47.69 E48.43935
G1 X114.897 Y45.016 E48.57303
G1 X115.067 Y42.338 E48.7069
G1 X115.567 Y39.722 E48.83978
G1 X116.394 Y37.166 E48.97381
G1 X117.528 Y34.755 E49.10673
G1 X118.97 Y32.488 E49.24078
G1 X120.663 Y30.44 E49.37334
G1 X122.621 Y28.599 E49.50743
G1 X124.787 Y27.03 E49.64086
G1 X127.124 Y25.742 E49.77399
G1 X129.621 Y24.754 E49.90796
G1 X132.223 Y24.09 E50.04194
G1 X134.849 Y23.756 E50.174
G1 X137.547 Y23.756 E50.30861
G1 X140.184 Y24.09 E50.44122
G1 X142.775 Y24.754 E50.57466
G1 X145.272 Y25.742 E50.70864
G1 X147.609 Y27.03 E50.84176
G1 X149.775 Y28.599 E50.9752
G1 X151.733 Y30.44 E51.10928
G1 X153.426 Y32.488 E51.24185
G1 X154.868 Y34.755 E51.37589
G1 X156.003 Y37.163 E51.5087
G1 X156.833 Y39.722 E51.64292
G1 X157.333 Y42.338 E51.7758
G1 X157.503 Y45.016 E51.90967
G1 X157.333 Y47.69 E52.04335
G1 X156.833 Y50.31 E52.17642
G1 X156.002 Y52.865 E52.31046
G1 X154.868 Y55.276 E52.44339
G1 X153.428 Y57.543 E52.57737
G1 X151.73 Y59.593 E52.71018
G1 X149.774 Y61.431 E52.84409
G1 X147.609 Y63.002 E52.97754
G1 X145.272 Y64.29 E53.11067
G1 X142.775 Y65.278 E53.24464
G1 X140.184 Y65.942 E53.37808
G1 X137.547 Y66.276 E53.51069
G0 F3600 X137.552 Y65.872
G1 F1800 X134.844 Y65.872 E53.6458
G1 X132.247 Y65.538 E53.77643
G1 X129.779 Y64.906 E53.90353
G1 X127.262 Y63.91 E54.03858
G1 X124.971 Y62.642 E54.16922
G1 X122.877 Y61.123 E54.29828
G1 X120.958 Y59.319 E54.42968
G1 X119.295 Y57.307 E54.55991
G1 X117.878 Y55.083 E54.69147
G1 X116.766 Y52.718 E54.82185
G1 X115.954 Y50.21 E54.95337
G1 X115.464 Y47.64 E55.0839
G1 X115.3 Y45.016 E55.21507
G1 X115.464 Y42.388 E55.34643
G1 X115.954 Y39.822 E55.47677
G1 X116.766 Y37.314 E55.60829
G1 X117.878 Y34.949 E55.73867
G1 X119.294 Y32.723 E55.87029
G1 X120.985 Y30.686 E56.00237
G1 X122.907 Y28.886 E56.13374
G1 X125.034 Y27.35 E56.26464
G1 X127.262 Y26.122 E56.39156
G1 X129.779 Y25.126 E56.5266
G1 X132.292 Y24.484 E56.65601
G1 X134.844 Y24.16 E56.78435
G1 X137.552 Y24.16 E56.91945
G1 X140.149 Y24.494 E57.05008
G1 X142.617 Y25.126 E57.17718
G1 X145.134 Y26.122 E57.31223
G1 X147.425 Y27.39 E57.44287
G1 X149.547 Y28.934 E57.57379
G1 X151.463 Y30.741 E57.70519
G1 X153.102 Y32.723 E57.8335
G1 X154.518 Y34.949 E57.96512
G1 X155.63 Y37.314 E58.09551
G1 X156.454 Y39.859 E58.22896
G1 X156.936 Y42.388 E58.35741
G1 X157.1 Y45.016 E58.48877
G1 X156.936 Y47.64 E58.61994
G1 X156.435 Y50.246 E58.75234
G1 X155.63 Y52.718 E58.88204
G1 X154.518 Y55.083 E59.01242
G1 X153.105 Y57.307 E59.14388
G1 X151.438 Y59.319 E59.27423
G1 X149.519 Y61.123 E59.40564
G1 X147.362 Y62.682 E59.53841
G1 X145.134 Y63.91 E59.66534
G1 X142.617 Y64.906 E59.80038
G1 X140.076 Y65.552 E59.93119
G1 X137.552 Y65.872 E60.05812
G0 F3600 X137.589 Y66.17
G0 X187.528 Y66.675
G1 F1800 X184.799 Y66.671 E60.19427
G1 X182.125 Y66.333 E60.32874
G1 X179.501 Y65.661 E60.46387
G1 X176.951 Y64.653 E60.60067
G1 X174.573 Y63.342 E60.73615
G1 X172.367 Y61.739 E60.87219
G1 X170.372 Y59.868 E61.00865
G1 X168.65 Y57.779 E61.14371
G1 X167.178 Y55.47 E61.28032
G1 X166.026 Y53.013 E61.41571
G1 X165.18 Y50.41 E61.55226
G1 X164.668 Y47.742 E61.6878
G1 X164.496 Y45.016 E61.82407
G1 X164.668 Y42.287 E61.96049
G1 X165.176 Y39.624 E62.09574
G1 X166.026 Y37.019 E62.23245
G1 X167.178 Y34.562 E62.36783
G1 X168.646 Y32.254 E62.5043
G1 X170.373 Y30.163 E62.6396
G1 X172.365 Y28.291 E62.77598
G1 X174.574 Y26.69 E62.91209
G1 X176.949 Y25.381 E63.04738
G1 X179.499 Y24.372 E63.1842
G1 X182.154 Y23.696 E63.32088
G1 X184.83 Y23.356 E63.45546
G1 X187.566 Y23.356 E63.59196
G1 X190.268 Y23.699 E63.72785
G1 X192.898 Y24.372 E63.86329
G1 X195.447 Y25.381 E64.00006
G1 X197.822 Y26.69 E64.13535
G1 X200.031 Y28.291 E64.27146
G1 X202.023 Y30.163 E64.40784
G1 X203.749 Y32.253 E64.54307
G1 X205.214 Y34.555 E64.6792
G1 X206.376 Y37.015 E64.81494
G1 X207.218 Y39.612 E64.95114
G1 X207.732 Y42.286 E65.08699
G1 X207.904 Y45.016 E65.22346
G1 X207.732 Y47.741 E65.35968
